!!!!SEGMENT: pl-cz--iii-686--004_volckmer-augustin--requiem-sanctus-et-benedictus.krn
!!!cenid: 18xx:1143
!!!COM: Volckmer, Augustin
!!!COM-rismid: pe30020656
!!!CDT: 1755-~1820
!!!CNT:
!!!OPR: Requiem
!!!OTL: Sanctus et Benedictus
!!!OMV: 004
!!!PDT: 1836
!!!AGN: Sacred; Requiem
!!!SMS-siglum: PL-CZ
!!!SMS-shelfmark: III-686
!!!SMS-shelfwork: 001-004 M
!!!SMS-variant:
!!!SMS-altvar:
!!!NIFC-rismid: 300001401
!!!URL-scan: http://repozytorium.nifc.pl/skany/pl-cz-nut--iii-686
!!!ONB-nifc: UWAGA: części Requiem: Requiem, Dies irae, Domine Jesu Christe, Sanctus et Benedictus,
!!!AIN: 1 alto 1 bass 2 clars 2 cor 1 fagot 1 organ 1 soprn 1 tenor 2 tromp 2 violn
!!!key: E-
**kern	**fba	**dynam	**kern	**dynam	**kern	**dynam	**kern	**text	**kern	**kern	**text	**kern	**text	**kern	**kern	**kern	**kern	**kern	**dynam	**kern	**kern
*	*	*	*group4	*	*group4	*	*group3	*	*group3	*group3	*	*group3	*	*group2	*group2	*group2	*group2	*group1	*	*group1	*group1
*part14	*part14	*part14	*part13	*part13	*part12	*part12	*part11	*part11	*part10	*part9	*part9	*part8	*part8	*part7	*part6	*part5	*part4	*part3	*part3	*part2	*part1
*staff14	*	*	*staff13	*	*staff12	*	*staff11	*staff11	*staff10	*staff9	*staff9	*staff8	*staff8	*staff7	*staff6	*staff5	*staff4	*staff3	*	*staff2	*staff1
*I"Organo.	*	*	*I"Violino IIdo	*	*I"Violino Primo	*	*I"Basso	*	*I"Tenore,	*I"Alto.	*	*I"Canto	*	*I"Tromba IIdo in Es	*I"Tromba Ima in Es con Sordin	*I"Cornuo IIdo in Es.	*I"Corno Prymo in Es	*I"Fagotto.	*	*I"Clarinetto IIdo in B.	*I"Clarinetto 1mo in B.
*I'org	*	*	*I'vl 2	*	*I'vl 1	*	*I'B	*	*I'T	*I'A	*	*I'S	*	*I'tr 2 in E|b	*I'tr 1 in E|b	*I'cor 2 in E|b	*I'cor 1 in E|b	*I'fag	*	*I'cl 2 in B|b	*I'cl 1 in B|b
*Iorgan	*	*	*Ivioln	*	*Ivioln	*	*Ibass	*	*Itenor	*Ialto	*	*Isoprn	*	*Itromp	*Itromp	*Icor	*Icor	*Ifagot	*	*Iclars	*Iclars
*ICklav	*	*	*ICstr	*	*ICstr	*	*ICvox	*	*ICvox	*ICvox	*	*ICvox	*	*ICbras	*ICbras	*ICbras	*ICbras	*ICww	*	*ICww	*ICww
*clefF4	*	*	*clefG2	*	*clefG2	*	*clefF4	*	*	*clefC3	*	*clefC1	*	*clefG2	*clefG2	*clefG2	*clefG2	*clefF4	*	*clefG2	*clefG2
*	*	*	*	*	*	*	*	*	*	*	*	*	*	*ITrd-2c-3	*ITrd-2c-3	*ITrd5c9	*ITrd5c9	*	*	*ITrd1c2	*ITrd1c2
*k[b-e-a-]	*	*	*k[b-e-a-]	*	*k[b-e-a-]	*	*k[e-b-a-]	*	*	*k[b-e-a-]	*	*k[e-b-a-]	*	*k[b-e-a-]	*k[b-e-a-]	*k[b-e-a-]	*k[b-e-a-]	*k[b-e-a-]	*	*k[b-e-a-]	*k[b-e-a-]
*E-:	*	*	*E-:	*	*E-:	*	*E-:	*	*	*E-:	*	*E-:	*	*E-:	*E-:	*E-:	*E-:	*E-:	*	*E-:	*E-:
*M2/4	*	*	*M2/4	*	*M2/4	*	*M2/4	*	*	*M2/4	*	*M2/4	*	*M2/4	*M2/4	*M2/4	*M2/4	*M2/4	*	*M2/4	*M2/4
*	*	*	*	*	*	*	*	*	*	*	*	*	*	*	*	*	*all\right	*	*	*all\right	*all\right
=1	=1	=1	=1	=1	=1	=1	=1	=1	=1	=1	=1	=1	=1	=1	=1	=1	=1	=1	=1	=1	=1
!LO:TX:t=P:problem=przy kluczu błędnie BB- D- G-	!	!	!	!	!	!	!	!	!	!	!	!	!	!	!	!	!	!	!	!	!
!LO:TX:a:i:t=Tutti	!	!	!	!	!LO:TX:t=P:problem=mixed beam	!	!LO:TX:t=P:problem=bemol A- dopisany ołówkiem	!	!	!	!	!	!	!	!	!	!	!	!	!	!
!LO:TX:a:i:t=Adagio	!	!	!LO:TX:a:i:t=Adagio.	!LO:DY:t=ffo&colon;	!LO:TX:a:i:t=Adagio.	!LO:DY:a:t=for.	!LO:TX:a:i:t=Adagio	!	!LO:TX:t=P:problem=wybrakowane źródło, brak partii T	!LO:TX:a:i:t=Adagio.	!	!LO:TX:a:i:t=Adagio	!	!LO:TX:a:i:t=Adagio	!LO:TX:a:i:t=Adagio	!	!LO:TX:a:i:t=Adagiio	!LO:TX:a:i:t=Adagio	!LO:DY:a	!LO:TX:a:i:t=Adagio	!LO:TX:a:i:t=Adagio!
8E-\	.	.	8e-/	ff	8e-/L	f	2r	.	2ryy	2r	.	2r	.	8e-/	8g/	8E-/	8e-\	8E-\	f	4g/	4ee-\
8r	.	.	8r	.	8ee-\	.	.	.	.	.	.	.	.	8r	8r	8r	8r	8r	.	.	.
4r	.	.	4r	.	8b-\	.	.	.	.	.	.	.	.	4r	4r	4r	4r	4r	.	4r	4r
.	.	.	.	.	8g\J	.	.	.	.	.	.	.	.	.	.	.	.	.	.	.	.
=2	=2	=2	=2	=2	=2	=2	=2	=2	=2	=2	=2	=2	=2	=2	=2	=2	=2	=2	=2	=2	=2
!LO:TX:a:i:t=Solo	!	!	!	!	!	!	!	!	!	!	!	!	!	!LO:TX:a:t=6.	!LO:TX:a:t=6	!LO:TX:a:t=6	!LO:TX:a:t=6	!	!LO:DY:a	!LO:TX:a:t=6	!LO:TX:a:t=6
4E-\	.	.	2r	.	8e-/	.	4E-\	San-	2ryy	(>4B-/	Sanc-	4e-/	San-	2r	0r	2r	0r	4E-\	p	0r	0r
.	.	.	.	.	8r	.	.	.	.	.	.	.	.	.	.	.	.	.	.	.	.
4BB-\	.	.	.	.	4r	.	4BB-/	.	.	4d/)	.	4f/	.	.	.	.	.	4BB-\	.	.	.
=3	=3	=3	=3	=3	=3	=3	=3	=3	=3	=3	=3	=3	=3	=3	=3	=3	=3	=3	=3	=3	=3
!	!	!LO:DY:a:t=fo	!	!	!	!	!	!	!	!	!	!	!	!	!	!	!	!	!	!	!
8E-\	.	f	8r	.	8r	.	8E-\	-ctus	2ryy	8B-/	-tus	8e-/	-ctus	2r	.	2r	.	8E-\	.	.	.
8r	.	.	8ee-\L	.	8gg\L	.	8r	.	.	8r	.	8r	.	.	.	.	.	8r	.	.	.
4r	.	.	8b-\	.	8ee-\	.	4r	.	.	4r	.	4r	.	.	.	.	.	4r	.	.	.
.	.	.	8g\J	.	8cc\J	.	.	.	.	.	.	.	.	.	.	.	.	.	.	.	.
!	!	!	!	!	!LO:LB:g=original	!	!	!	!	!	!	!	!	!	!	!	!	!	!	!	!
=4	=4	=4	=4	=4	=4	=4	=4	=4	=4	=4	=4	=4	=4	=4	=4	=4	=4	=4	=4	=4	=4
*	*	*	*	*	*	*	*	*	*	*	*ij	*	*	*	*	*	*	*	*	*	*
*	*	*	*	*	*	*	*	*ij	*	*	*	*	*	*	*	*	*	*	*	*	*
!LO:TX:a:i:t=Solo	!	!	!	!	!	!	!	!	!	!	!	!	!	!	!	!	!	!	!	!	!
4E-\	.	.	8e-/	.	8g/	.	4E-\	San-	2ryy	4e-\	Sanc-	4g\	San-	2r	.	2r	.	4E-\	.	.	.
.	.	.	8r	.	8r	.	.	.	.	.	.	.	.	.	.	.	.	.	.	.	.
4D\	.	.	4r	.	4r	.	4D\	.	.	4f\	.	4a-\	.	.	.	.	.	4D\	.	.	.
=5	=5	=5	=5	=5	=5	=5	=5	=5	=5	=5	=5	=5	=5	=5	=5	=5	=5	=5	=5	=5	=5
!	!	!	!	!	!	!	!	!	!	!	!	!	!	!	!	!	!	!LO:N:vis=4	!	!	!
4E-\	.	.	8r	.	8r	.	8E-\	-ctus	2ryy	8e-\	-tus	8g\	-ctus	2r	.	2r	.	8E-\	.	.	.
.	.	.	8gg\L	.	8bb-\L	.	8r	.	.	8r	.	8r	.	.	.	.	.	8r	.	.	.
4r	.	.	8ee-\	.	8gg\	.	4r	.	.	4r	.	4r	.	.	.	.	.	4r	.	.	.
!	!	!	!LO:TX:a:t=b:color=grey	!	!	!	!	!	!	!	!	!	!	!	!	!	!	!	!	!	!
.	.	.	8b-\J@	.	8ee-\J	.	.	.	.	.	.	.	.	.	.	.	.	.	.	.	.
=6	=6	=6	=6	=6	=6	=6	=6	=6	=6	=6	=6	=6	=6	=6	=6	=6	=6	=6	=6	=6	=6
8E-\	.	.	8r	.	8r	.	4E-\	Sanc-	2ryy	4g\	Sanc-	4b-\	San-	2r	1r	2r	1r	8E-\	.	1r	1r
8r	.	.	8g/	.	8b-\	.	.	.	.	.	.	.	.	.	.	.	.	8r	.	.	.
8F\	6	.	8r	.	8r	.	4F\	-tus	.	4a-\	-tus	4dd\	-ctus	.	.	.	.	8F\	.	.	.
*	*	*	*	*	*	*	*	*Xij	*	*	*Xij	*	*	*	*	*	*	*	*	*	*
8r	.	.	8a-/	.	8dd\	.	.	.	.	.	.	.	.	.	.	.	.	8r	.	.	.
!	!	!	!	!	!	!	!LO:LB:g=original	!	!	!LO:LB:g=original	!	!LO:LB:g=original	!	!	!	!	!	!	!	!	!
=7	=7	=7	=7	=7	=7	=7	=7	=7	=7	=7	=7	=7	=7	=7	=7	=7	=7	=7	=7	=7	=7
8G\	6	.	8r	.	8r	.	8G\	Do-	2ryy	8b-\	Do-	16ff\LL	Do-	2r	.	2r	.	8G\	.	.	.
.	.	.	.	.	.	.	.	.	.	.	.	16ee-\JJ	.	.	.	.	.	.	.	.	.
8r	.	.	8b-\	.	8ee-\	.	16G\	-mi-	.	16b-\	-mi-	16dd\LL	-mi-	.	.	.	.	8r	.	.	.
.	.	.	.	.	.	.	16G\	-nus	.	16b-\	-nus	16ee-\JJ	-nus	.	.	.	.	.	.	.	.
8A-\	6	.	8r	.	8r	.	8A-\	De-	.	8e-\	De-	16ee-\LL	De-	.	.	.	.	8A-\	.	.	.
.	.	.	.	.	.	.	.	.	.	.	.	16cc\JJ	.	.	.	.	.	.	.	.	.
8r	.	.	8f/	.	8a-\	.	8AA-/	-us	.	8f\	-us	16a-\LL	-us	.	.	.	.	8r	.	.	.
.	.	.	.	.	.	.	.	.	.	.	.	16f\JJ	.	.	.	.	.	.	.	.	.
!LO:LB:g=original	!	!	!	!	!	!	!	!	!	!	!	!	!	!	!	!	!	!LO:LB:g=original	!	!	!
=8	=8	=8	=8	=8	=8	=8	=8	=8	=8	=8	=8	=8	=8	=8	=8	=8	=8	=8	=8	=8	=8
!	!	!	!	!	!	!	!	!	!	!	!	!	!	!LO:N:vis=4	!	!	!	!	!	!	!
8B-\	6 4	.	8r	.	8r	.	4.BB-/	Sa-	2ryy	4.B-/	Sa-	4e-/	Sa-	8e-/	8g/	8r	8r	8B-\	.	8r	8r
8r	.	.	8e-/	.	8g\	.	.	.	.	.	.	.	.	8r	8r	8e-\	8g\	8r	.	8ee-\	8gg\
8BB-/	5 3	.	8r	.	8r	.	.	.	.	.	.	8g/L	-ba-	8B-/	8b-/	8r	8r	8BB-/	.	8r	8r
8r	.	.	8d/	.	8f\	.	8BB-/	-ba-	.	8B-/	-ba-	8f/J	.	8r	8r	8e-\	8f\	8r	.	8b-\	8ff\
!	!	!	!	!	!	!	!	!	!	!	!	!	!	!LO:LB:g=original	!	!LO:LB:g=original	!	!	!	!	!
=9	=9	=9	=9	=9	=9	=9	=9	=9	=9	=9	=9	=9	=9	=9	=9	=9	=9	=9	=9	=9	=9
!	!	!	!	!	!LO:TX:t=P:problem=mixed beam	!	!	!	!	!	!	!	!	!	!	!	!	!	!	!	!
8E-\	.	.	8e-/	.	8e-/L	.	8EE-/	-oth	2ryy	8B-/	-oth	8e-/	-ot	8e-/	8g/	8G/	8e-\	8E-\	.	4g/	4ee-\
8r	.	.	8r	.	8gg\	.	8r	.	.	8r	.	8r	.	8r	8r	8r	8r	8r	.	.	.
4r	.	.	4r	.	8ee-\	.	4r	.	.	4r	.	4r	.	4r	4r	4r	4r	8BB-/	.	4r	4r
.	.	.	.	.	8cc\J	.	.	.	.	.	.	.	.	.	.	.	.	8r	.	.	.
!	!	!	!LO:LB:g=original	!	!	!	!	!	!	!LO:PB:g=original	!	!	!	!	!	!	!	!	!	!	!
=10	=10	=10	=10	=10	=10	=10	=10	=10	=10	=10	=10	=10	=10	=10	=10	=10	=10	=10	=10	=10	=10
*2\right	*	*	*	*	*	*	*	*	*	*	*	*	*	*	*	*	*	*2\right	*	*	*
*tremolo	*	*	*tremolo	*	*tremolo	*	*	*	*	*	*	*	*	*	*	*	*	*tremolo	*	*	*
!	!	!	!	!	!	!	!	!	!	!	!	!	!	!LO:TX:a:t=1.	!	!	!	!	!	!	!
8F\L	n	.	16c/LL	.	16an/LL	.	4F\	Ple-	2ryy	4e-\	Ple-	4an\	ple-	2r	2r	4f\	4f\	8F\L	.	4f/	4ff\
.	.	.	16e-/	.	16a/	.	.	.	.	.	.	.	.	.	.	.	.	.	.	.	.
8F\	.	.	16c/	.	16a/	.	.	.	.	.	.	.	.	.	.	.	.	8F\	.	.	.
.	.	.	16e-/	.	16a/	.	.	.	.	.	.	.	.	.	.	.	.	.	.	.	.
8F\	.	.	16c/	.	16a/	.	8F\	-ni	.	8e-\	-ni	8a\	-ni	.	.	8f\L	8f\L	8F\	.	8f/L	8a\L
.	.	.	16e-/	.	16a/	.	.	.	.	.	.	.	.	.	.	.	.	.	.	.	.
8F\J	.	.	16c/	.	16a/	.	8F\	sunt	.	8e-\	sunt	8a\	sunt	.	.	8f\J	8f\J	8F\J	.	8f/J	8a\J
.	.	.	16e-/JJ	.	16a/JJ	.	.	.	.	.	.	.	.	.	.	.	.	.	.	.	.
*	*	*	*	*	*Xtremolo	*	*	*	*	*	*	*	*	*	*	*	*	*	*	*	*
!	!	!	!	!	!	!	!	!	!	!	!	!	!	!	!LO:LB:g=original	!	!LO:LB:g=original	!	!	!	!
=11	=11	=11	=11	=11	=11	=11	=11	=11	=11	=11	=11	=11	=11	=11	=11	=11	=11	=11	=11	=11	=11
*	*	*	*	*	*	*	*	*	*	*	*	*	*	*	*	*	*2\right	*	*	*	*2\right
8BB-/L	.	.	16B-/LL	.	16b-\LL	.	8BB-/	ce-	2ryy	8d\	Ce-	8b-\	ce-	2B-/	2b-/	2B-/	2e-\	8BB-/L	.	2d/	2b-\
.	.	.	16d/	.	32cc\L	.	.	.	.	.	.	.	.	.	.	.	.	.	.	.	.
.	.	.	.	.	32dd\JJJ	.	.	.	.	.	.	.	.	.	.	.	.	.	.	.	.
!	!	!	!	!	!LO:LB:g=original	!	!	!	!	!	!	!	!	!	!	!	!	!	!	!	!
8BB-/	.	.	16B-/	.	32ee-\LLL	.	8BB-/	-li	.	8d\	-li	8b-\	-li	.	.	.	.	8BB-/	.	.	.
.	.	.	.	.	32ff\	.	.	.	.	.	.	.	.	.	.	.	.	.	.	.	.
.	.	.	16d/	.	32gg\	.	.	.	.	.	.	.	.	.	.	.	.	.	.	.	.
.	.	.	.	.	32aan\JJJ	.	.	.	.	.	.	.	.	.	.	.	.	.	.	.	.
8BB-/	.	.	16B-/	.	32bb-\LLL	.	4r	.	.	4r	.	4r	.	.	.	.	.	8BB-/	.	.	.
.	.	.	.	.	32aa\	.	.	.	.	.	.	.	.	.	.	.	.	.	.	.	.
.	.	.	16d/	.	32gg\	.	.	.	.	.	.	.	.	.	.	.	.	.	.	.	.
.	.	.	.	.	32ff\JJJ	.	.	.	.	.	.	.	.	.	.	.	.	.	.	.	.
8BB-/J	.	.	16B-/	.	32ee-\LLL	.	.	.	.	.	.	.	.	.	.	.	.	8BB-/J	.	.	.
.	.	.	.	.	32dd\	.	.	.	.	.	.	.	.	.	.	.	.	.	.	.	.
.	.	.	16d/JJ	.	32cc\	.	.	.	.	.	.	.	.	.	.	.	.	.	.	.	.
.	.	.	.	.	32b-\JJJ	.	.	.	.	.	.	.	.	.	.	.	.	.	.	.	.
*Xtremolo	*	*	*Xtremolo	*	*	*	*	*	*	*	*	*	*	*	*	*	*	*Xtremolo	*	*	*
!	!	!	!	!	!	!	!	!	!	!	!	!LO:LB:g=original	!	!	!	!	!	!	!	!	!
=12	=12	=12	=12	=12	=12	=12	=12	=12	=12	=12	=12	=12	=12	=12	=12	=12	=12	=12	=12	=12	=12
!	!	!	!	!	!	!	!	!	!	!	!	!	!	!LO:TX:a:t=2	!LO:TX:a:t=2:color=grey	!LO:TX:a:t=2	!LO:TX:a:t=2	!	!	!LO:TX:a:t=2	!LO:TX:a:t=2
4A-X\	1	.	4a-X/	.	4a-X/	.	4A-X\	Ce-	2ryy	4a-X\	Ce-	4a-X\	Ce-	1r	2r	1r	1r	4A-X\	.	1r	1r
*	*	*	*tremolo	*	*tremolo	*	*	*	*	*	*	*	*	*	*	*	*	*	*	*	*
!	!	!	!	!	!	!	!LO:TX:a:t=as	!	!	!	!	!	!	!	!	!	!	!	!	!	!
4AA-/	.	.	32A-X/LLL	.	32A-X/LLL	.	8AA-/	-li	.	8A-X\	-li	8A-/	-li	.	.	.	.	4AA-/	.	.	.
.	.	.	32A-/	.	32A-/	.	.	.	.	.	.	.	.	.	.	.	.	.	.	.	.
.	.	.	32A-/	.	32A-/	.	.	.	.	.	.	.	.	.	.	.	.	.	.	.	.
.	.	.	32A-/	.	32A-/	.	.	.	.	.	.	.	.	.	.	.	.	.	.	.	.
!	!	!	!	!	!	!	!LO:TX:a:t=as	!	!	!	!	!	!	!	!	!	!	!	!	!	!
.	.	.	32A-/	.	32A-/	.	8AA-/	et	.	8A-\	et	8A-/	et	.	.	.	.	.	.	.	.
.	.	.	32A-/	.	32A-/	.	.	.	.	.	.	.	.	.	.	.	.	.	.	.	.
.	.	.	32A-/	.	32A-/	.	.	.	.	.	.	.	.	.	.	.	.	.	.	.	.
.	.	.	32A-/JJJ	.	32A-/JJJ	.	.	.	.	.	.	.	.	.	.	.	.	.	.	.	.
*	*	*	*Xtremolo	*	*Xtremolo	*	*	*	*	*	*	*	*	*	*	*	*	*	*	*	*
!	!	!	!	!	!	!	!LO:LB:g=original	!	!	!	!	!	!	!	!	!	!	!	!	!	!
=13	=13	=13	=13	=13	=13	=13	=13	=13	=13	=13	=13	=13	=13	=13	=13	=13	=13	=13	=13	=13	=13
4GG/	.	.	8G/	.	16G/LL	.	8GG/	ter-	2ryy	8G/	ter-	8G/	te-	.	2r	.	.	4GG/	.	.	.
.	.	.	.	.	32An/L	.	.	.	.	.	.	.	.	.	.	.	.	.	.	.	.
.	.	.	.	.	32Bn/JJJ	.	.	.	.	.	.	.	.	.	.	.	.	.	.	.	.
.	.	.	8r	.	32c/LLL	.	8GG/	-ra	.	8G/	-ra	8G/	-ra	.	.	.	.	.	.	.	.
.	.	.	.	.	32d/	.	.	.	.	.	.	.	.	.	.	.	.	.	.	.	.
.	.	.	.	.	32en/	.	.	.	.	.	.	.	.	.	.	.	.	.	.	.	.
.	.	.	.	.	32f#X/JJJ	.	.	.	.	.	.	.	.	.	.	.	.	.	.	.	.
4r	.	.	4r	.	32g\LLL	.	4r	.	.	4r	.	4r	.	.	.	.	.	4r	.	.	.
.	.	.	.	.	32an\	.	.	.	.	.	.	.	.	.	.	.	.	.	.	.	.
.	.	.	.	.	32bn\	.	.	.	.	.	.	.	.	.	.	.	.	.	.	.	.
.	.	.	.	.	32cc\JJJ	.	.	.	.	.	.	.	.	.	.	.	.	.	.	.	.
.	.	.	.	.	32dd\LLL	.	.	.	.	.	.	.	.	.	.	.	.	.	.	.	.
.	.	.	.	.	32een\	.	.	.	.	.	.	.	.	.	.	.	.	.	.	.	.
.	.	.	.	.	32ff#X\	.	.	.	.	.	.	.	.	.	.	.	.	.	.	.	.
.	.	.	.	.	32gg\JJJ	.	.	.	.	.	.	.	.	.	.	.	.	.	.	.	.
!	!	!	!	!	!	!	!	!	!	!	!	!	!	!	!	!	!	!	!	!LO:LB:g=original	!
=14	=14	=14	=14	=14	=14	=14	=14	=14	=14	=14	=14	=14	=14	=14	=14	=14	=14	=14	=14	=14	=14
8G\L	n_	.	8dd\L	.	8bbn\L	.	4F\	glo-	2ryy	4d\	glo-	4bn\	glo-	8g/L	8g/L	8G/L	8g\L	8G\L	.	8g/L	8bX\L
16.G\L	.	.	16.dd\L	.	16.bb\L	.	.	.	.	.	.	.	.	16g/L	16g/L	16G/L	16g\L	16.G\L	.	16g/L	16b\L
.	.	.	.	.	.	.	.	.	.	.	.	.	.	16g/JJ	16g/JJ	16G/JJ	16g\JJ	.	.	16g/JJ	16b\JJ
32G\JJk	.	.	32dd\JJk	.	32bb\JJk	.	.	.	.	.	.	.	.	.	.	.	.	32G\JJk	.	.	.
8G\L	.	.	8dd\L	.	8bb\L	.	8F\	-ri-	.	8d\	-ri-	8b\L	-ri-	8g/L	8g/L	8G/L	8g\L	8G\L	.	8g/L	8b\L
8G\J	.	.	8dd\J	.	8bb\J	.	8F\	-a	.	8d\	-a	8b\J	-a	8g/J	8g/J	8G/J	8g\J	8G\J	.	8g/J	8b\J
=15	=15	=15	=15	=15	=15	=15	=15	=15	=15	=15	=15	=15	=15	=15	=15	=15	=15	=15	=15	=15	=15
!LO:TX:t=P:problem=mixed beam	!	!	!LO:TX:t=P:problem=mixed beam	!	!LO:TX:t=P:problem=mixed beam	!	!	!	!	!	!	!	!	!	!	!	!	!LO:TX:t=P:problem=mixed beam	!	!	!
16c\LL	-	.	16ee-\LL	.	16ccc\LL	.	8C\	tu-	2ryy	8e-\	tu-	8cc\	tu-	8g/	8g/	8G/	8g\	8c\L	.	8g/L	8cc\L
32C/L	.	.	32c/L	.	32c/L	.	.	.	.	.	.	.	.	.	.	.	.	.	.	.	.
32C/J	.	.	32c/J	.	32c/J	.	.	.	.	.	.	.	.	.	.	.	.	.	.	.	.
16C/	.	.	16c/	.	16c/	.	8C\	-a	.	8c\	-a	8c/	-a	8r	8r	8r	8r	16C/L	.	16g/L	16cc\L
16C/JJ	.	.	16c/JJ	.	16c/JJ	.	.	.	.	.	.	.	.	.	.	.	.	16C/JJ	.	16g/JJ	16cc\JJ
*	*	*	*	*	*tremolo	*	*	*	*	*	*	*	*	*	*	*	*	*tremolo	*	*	*
16C/LL	.	.	16c/LL	.	16c/LL	.	4r	.	.	4r	.	4r	.	4r	4r	4r	4r	16C/LL	.	8g/L	8cc\L
16C/	.	.	16c/	.	16c/	.	.	.	.	.	.	.	.	.	.	.	.	16C/	.	.	.
16C/	.	.	16c/	.	16c/	.	.	.	.	.	.	.	.	.	.	.	.	16C/	.	8g/J	8cc\J
16C/JJ	.	.	16c/JJ	.	16c/JJ	.	.	.	.	.	.	.	.	.	.	.	.	16C/JJ	.	.	.
*	*	*	*	*	*Xtremolo	*	*	*	*	*	*	*	*	*	*	*	*	*Xtremolo	*	*	*
!LO:LB:g=original	!	!	!	!	!LO:LB:g=original	!	!	!	!	!	!	!	!	!	!	!	!	!	!	!	!LO:LB:g=original
=16	=16	=16	=16	=16	=16	=16	=16	=16	=16	=16	=16	=16	=16	=16	=16	=16	=16	=16	=16	=16	=16
4BB-X/	5_	.	32d/LLL	.	32d/LLL	.	4BB-X/	glo-	2ryy	4fn\	glo-	4dd\	glo-	4B-/	4b-/	4B-/	4f\	4BB-X/	.	4b-\	4ff\
.	.	.	32f/	.	32f/	.	.	.	.	.	.	.	.	.	.	.	.	.	.	.	.
.	.	.	32e-X/	.	32e-X/	.	.	.	.	.	.	.	.	.	.	.	.	.	.	.	.
.	.	.	32g/JJJ	.	32g/JJJ	.	.	.	.	.	.	.	.	.	.	.	.	.	.	.	.
.	.	.	32f/LLL	.	32f/LLL	.	.	.	.	.	.	.	.	.	.	.	.	.	.	.	.
.	.	.	32a-X/	.	32a-X/	.	.	.	.	.	.	.	.	.	.	.	.	.	.	.	.
.	.	.	32g/	.	32g/	.	.	.	.	.	.	.	.	.	.	.	.	.	.	.	.
.	.	.	32b-X/JJJ	.	32b-X/JJJ	.	.	.	.	.	.	.	.	.	.	.	.	.	.	.	.
8BB-/L	.	.	32a-\LLL	.	32a-\LLL	.	8BB-/	-ri-	.	8f\	-ri-	8dd\	-ri-	8B-/L	8b-/L	8B-/L	8f\L	8BB-/L	.	8b-\L	8ff\L
.	.	.	32cc\	.	32cc\	.	.	.	.	.	.	.	.	.	.	.	.	.	.	.	.
.	.	.	32b-\	.	32b-\	.	.	.	.	.	.	.	.	.	.	.	.	.	.	.	.
.	.	.	32dd\JJJ	.	32dd\JJJ	.	.	.	.	.	.	.	.	.	.	.	.	.	.	.	.
8BB-/J	.	.	32cc\LLL	.	32cc\LLL	.	8BB-/	-a	.	8f\	-a	8dd\	-a	8B-/J	8b-/J	8B-/J	8f\J	8BB-/J	.	8b-\J	8ff\J
.	.	.	32ee-\	.	32ee-\	.	.	.	.	.	.	.	.	.	.	.	.	.	.	.	.
.	.	.	32dd\	.	32dd\	.	.	.	.	.	.	.	.	.	.	.	.	.	.	.	.
.	.	.	32ff\JJJ	.	32ff\JJJ	.	.	.	.	.	.	.	.	.	.	.	.	.	.	.	.
!	!	!	!	!	!	!	!	!	!	!LO:LB:g=original	!	!	!	!	!	!	!	!	!	!	!
=17	=17	=17	=17	=17	=17	=17	=17	=17	=17	=17	=17	=17	=17	=17	=17	=17	=17	=17	=17	=17	=17
!	!	!	!LO:TX:t=P:problem=mixed beam	!	!LO:TX:t=P:problem=mixed beam	!	!	!	!	!	!	!	!	!	!LO:TX:a:t=e	!	!	!	!	!	!
4E-\	x	.	8ee-\L	.	8ee-\L	.	8E-\	tu-	2ryy	8g\	tu-	8ee-\	tu-	8e-/	8b- 8g/	8e-\	8g\	8E-\	.	4ee-\	4gg\
.	.	.	8e-/J	.	8e-/J	.	8E-\	-a	.	8e-\	-a	8e-/	-a	8r	8r	8r	8r	8r	.	.	.
8r	.	.	4r	.	4r	.	8r	.	.	4r	.	4r	.	4r	4r	4r	4r	8r	.	4r	4r
!	!	!LO:DY:a	!	!	!	!	!	!	!	!	!	!	!	!	!	!	!	!	!	!	!
8E-\	.	pp	.	.	.	.	8E-\	O-	.	.	.	.	.	.	.	.	.	8E-\	.	.	.
!	!	!	!LO:LB:g=original	!	!	!	!	!	!	!	!	!	!	!	!	!	!	!	!	!	!
=18	=18	=18	=18	=18	=18	=18	=18	=18	=18	=18	=18	=18	=18	=18	=18	=18	=18	=18	=18	=18	=18
!	!	!	!	!	!	!	!	!	!	!	!	!LO:TX:a:t=3:color=grey	!	!LO:TX:a:t=6	!LO:TX:a:t=6:color=grey	!LO:TX:a:t=6.	!LO:TX:a:t=6	!	!	!LO:TX:a:t=6	!LO:TX:a:t=6
4D\	.	.	2r	.	2r	.	8.D\	-san-	2ryy	2r	.	1r	.	0r	0r	2r	0r	4D\	.	0r	0r
.	.	.	.	.	.	.	16D\	-(n)a	.	.	.	.	.	.	.	.	.	.	.	.	.
8E-\L	.	.	.	.	.	.	8E-\	in	.	.	.	.	.	.	.	.	.	8E-\L	.	.	.
!	!	!	!	!	!	!	!LO:TX:a:t=e:color=grey	!	!	!	!	!	!	!	!	!	!	!	!	!	!
8C\J	.	.	.	.	.	.	8C/	ex-	.	.	.	.	.	.	.	.	.	8C\J	.	.	.
!	!	!	!	!	!	!	!	!	!	!	!	!	!	!	!	!	!	!LO:LB:g=original	!	!	!
=19	=19	=19	=19	=19	=19	=19	=19	=19	=19	=19	=19	=19	=19	=19	=19	=19	=19	=19	=19	=19	=19
8BB-/L	.	.	4r	.	4r	.	8.BB-/L	-cel-	2ryy	4r	.	.	.	.	.	2r	.	8BB-/L	.	.	.
8GG/J	.	.	.	.	.	.	.	.	.	.	.	.	.	.	.	.	.	8GG/J	.	.	.
.	.	.	.	.	.	.	16GG/Jk	.	.	.	.	.	.	.	.	.	.	.	.	.	.
4EE-/	.	.	8r	.	8r	.	8EE-/	-sis	.	8r	.	.	.	.	.	.	.	4EE-/	.	.	.
!	!	!	!	!	!	!LO:DY:t=pia	!	!	!	!	!	!	!	!	!	!	!	!	!	!	!
.	.	.	8c/	.	8e-/	p	8r	.	.	8e-\	Ho-	.	.	.	.	.	.	.	.	.	.
=20	=20	=20	=20	=20	=20	=20	=20	=20	=20	=20	=20	=20	=20	=20	=20	=20	=20	=20	=20	=20	=20
!	!	!	!	!LO:DY:a:t=po&colon;	!	!	!LO:TX:a:t=4	!	!	!	!	!	!	!	!	!	!	!	!	!	!
2EE-/	.	.	4B-/	p	4d/	.	0r	.	2ryy	8.d\	-[san]-	2r	.	.	.	2r	.	2EE-/	.	.	.
.	.	.	.	.	.	.	.	.	.	16d\	-[n]a	.	.	.	.	.	.	.	.	.	.
.	.	.	8c/L	.	8e-/L	.	.	.	.	8e-\	in	.	.	.	.	.	.	.	.	.	.
.	.	.	8A-/J	.	8c/J	.	.	.	.	8c\	ex-	.	.	.	.	.	.	.	.	.	.
!	!	!	!	!	!	!	!	!	!	!	!	!LO:LB:g=original	!	!	!	!	!	!	!	!	!
=21	=21	=21	=21	=21	=21	=21	=21	=21	=21	=21	=21	=21	=21	=21	=21	=21	=21	=21	=21	=21	=21
2EE-/	.	.	4.G/	.	4.B-/	.	.	.	2ryy	4B-/	-cel-	4r	.	.	.	2r	.	2EE-/	.	.	.
.	.	.	.	.	.	.	.	.	.	8G/	-sis	8r	.	.	.	.	.	.	.	.	.
.	.	.	8cc\	.	8ee-\	.	.	.	.	8cc\	ho-	8ee-\	O-	.	.	.	.	.	.	.	.
=22	=22	=22	=22	=22	=22	=22	=22	=22	=22	=22	=22	=22	=22	=22	=22	=22	=22	=22	=22	=22	=22
2EE-/	.	.	4b-\	.	4dd\	.	.	.	2ryy	8.b-\	-san-	8.dd\	-san-	1r	1r	2r	1r	2EE-/	.	1r	1r
.	.	.	.	.	.	.	.	.	.	16b-\	-na	16dd\	-na	.	.	.	.	.	.	.	.
.	.	.	8cc\L	.	8ee-\L	.	.	.	.	8cc\	in	8ee-\	in	.	.	.	.	.	.	.	.
.	.	.	8a-\J	.	8cc\J	.	.	.	.	8a-\	ex-	8cc\	ex-	.	.	.	.	.	.	.	.
=23	=23	=23	=23	=23	=23	=23	=23	=23	=23	=23	=23	=23	=23	=23	=23	=23	=23	=23	=23	=23	=23
8EE-/	.	.	8g/L	.	8b-\L	.	.	.	2ryy	8g\	-cel-	8b-X\	-cel-	.	.	2r	.	8EE-/	.	.	.
8r	.	.	8e-/J	.	8ee-\J	.	.	.	.	8e-\	-sis	8ee-\	-siſ	.	.	.	.	8r	.	.	.
!	!	!	!	!	!LO:LB:g=original	!	!	!	!	!	!	!	!	!	!	!	!	!	!	!	!
!	!	!	!	!	!LO:TX:t=P:problem=mixed beam	!	!	!	!	!	!	!	!	!	!	!	!	!	!	!	!
4r	.	.	4r	.	8gg\L	.	.	.	.	4r	.	8gg\	in	.	.	.	.	4r	.	.	.
.	.	.	.	.	8e-/J	.	.	.	.	.	.	8e-/	ex-	.	.	.	.	.	.	.	.
!	!	!	!	!	!	!	!	!	!	!LO:LB:g=original	!	!	!	!	!	!	!	!	!	!	!
=24	=24	=24	=24	=24	=24	=24	=24	=24	=24	=24	=24	=24	=24	=24	=24	=24	=24	=24	=24	=24	=24
2BB-/	.	.	8B-/L	.	4g/	.	8BB-/	in	2ryy	8e-\	in	4g/	-cel-	4e-/	4g/	4e-\	4g\	2BB-/	.	4ee-\	4gg\
.	.	.	8e-/	.	.	.	8BB-/	ex-	.	8e-\	ex-	.	.	.	.	.	.	.	.	.	.
.	.	.	8d/	.	4f/	.	4BB-/	-cel-	.	4d\	-cel-	4f/	.	4B-/	4b-/	4B-/	4f\	.	.	4b-\	4ff\
.	.	.	8A-/J	.	.	.	.	.	.	.	.	.	.	.	.	.	.	.	.	.	.
!LO:LB:g=original	!	!	!	!	!	!	!	!	!	!	!	!	!	!	!	!	!	!	!	!	!
=25	=25	=25	=25	=25	=25	=25	=25	=25	=25	=25	=25	=25	=25	=25	=25	=25	=25	=25	=25	=25	=25
*tremolo	*	*	*	*	*	*	*	*	*	*	*	*	*	*	*	*	*	*tremolo	*	*	*
8E-\L	.	.	8G/	.	8e-/	.	8E-\	-sis	2ryy	8d\	-sis	8e-/	-siſ	8e-/L	8g/L	8G/L	8e-\L	8E-\L	.	4g/	8ee-\L
8E-\	.	.	8r	.	8r	.	8E-\	o-	.	8r	.	8r	.	8e-/	8e-/	8E-/	8e-\	8E-\	.	.	8ee-\
8E-\	.	.	8r	.	8r	.	8E-\	-san-	.	8r	.	4r	.	8e-/	8e-/	8E-/	8e-\	8E-	.	8r	8ee-\
8E-\J	.	.	8c/	.	8e-/	.	8E-\	-na	.	8e-\	ho-	.	.	8e-/J	8e-/J	8E-/J	8e-\J	8E-\J	.	8cc\	8ee-\J
!	!	!	!	!	!	!	!	!	!	!	!	!	!	!LO:LB:g=original	!	!	!LO:LB:g=original	!	!	!	!
=26	=26	=26	=26	=26	=26	=26	=26	=26	=26	=26	=26	=26	=26	=26	=26	=26	=26	=26	=26	=26	=26
*	*	*	*	*	*	*	*	*	*	*	*	*	*	*	*	*	*	*rep	*	*	*
8E-\L	.	.	4B-/	.	4d/	.	4E-\	in	2ryy	8.d\	-san-	2r	.	2e-/	2e-/	2E-/	2e-\	8E-\L	.	4b-\	2ee-\
8E-\	.	.	.	.	.	.	.	.	.	.	.	.	.	.	.	.	.	8E-\	.	.	.
.	.	.	.	.	.	.	.	.	.	16d\	-na	.	.	.	.	.	.	.	.	.	.
8E-\	.	.	8c/L	.	8e-/L	.	4E-\	ex-	.	8e-\	in	.	.	.	.	.	.	8E-\	.	8cc\L	.
8E-\J	.	.	8A-/J	.	8c/J	.	.	.	.	8c\	ex-	.	.	.	.	.	.	8E-\J	.	8a-\J	.
*Xtremolo	*	*	*	*	*	*	*	*	*	*	*	*	*	*	*	*	*	*Xrep	*	*	*
!	!	!	!	!	!	!	!	!	!	!	!	!	!	!	!	!LO:LB:g=original	!	!	!	!	!
=27	=27	=27	=27	=27	=27	=27	=27	=27	=27	=27	=27	=27	=27	=27	=27	=27	=27	=27	=27	=27	=27
*	*	*	*	*	*	*	*2\right	*	*	*	*	*	*	*	*	*	*	*rep	*	*	*rep
2E-\	.	.	4.G/	.	4.B-/	.	2E-\	-cel-	2ryy	4B-/	-cel-	4r	.	2e-/	2e-/	2E-/	2e-\	8E-\L	.	4.g/	2ee-\
.	.	.	.	.	.	.	.	.	.	.	.	.	.	.	.	.	.	8E-\	.	.	.
.	.	.	.	.	.	.	.	.	.	8G/	-sis	8r	.	.	.	.	.	8E-\	.	.	.
.	.	.	8cc\	.	8ee-\	.	.	.	.	8cc\	ho-	8ee-\	O-	.	.	.	.	8E-\J	.	8cc/	.
*	*	*	*	*	*	*	*	*	*	*	*	*	*	*	*	*	*	*Xrep	*	*	*Xrep
*	*	*	*	*	*	*	*	*	*	*	*	*	*	*	*	*	*	*Xtremolo	*	*	*
!	!	!	!	!	!	!	!	!	!	!	!	!LO:LB:g=original	!	!	!LO:LB:g=original	!	!	!	!	!LO:LB:g=original	!
=28	=28	=28	=28	=28	=28	=28	=28	=28	=28	=28	=28	=28	=28	=28	=28	=28	=28	=28	=28	=28	=28
*	*	*	*	*	*	*	*	*	*	*	*	*	*	*	*	*	*	*	*	*	*rep
2E-\	.	.	4b-\	.	4dd\	.	2E-\	.	2ryy	8.b-\	-san-	8.dd\	-san-	2e-/	2e-/	2E-/	2e-\	2E-\	.	4b-\	2ee-\
.	.	.	.	.	.	.	.	.	.	16b-\	-na	16dd\	-na	.	.	.	.	.	.	.	.
.	.	.	8cc\L	.	8ee-\L	.	.	.	.	8cc\	in	8ee-\	in	.	.	.	.	.	.	8cc\L	.
.	.	.	8a-\J	.	8cc\J	.	.	.	.	8a-\	ex-	8cc\	ex-	.	.	.	.	.	.	8a-\J	.
*	*	*	*	*	*	*	*	*	*	*	*	*	*	*	*	*	*	*	*	*	*Xrep
=29	=29	=29	=29	=29	=29	=29	=29	=29	=29	=29	=29	=29	=29	=29	=29	=29	=29	=29	=29	=29	=29
!	!	!	!	!	!LO:TX:t=P:problem=mixed beam	!	!	!	!	!	!	!	!	!	!	!	!	!LO:N:vis=4	!	!	!
8E-\	.	.	8g\L	.	8b-\L	.	8E-\	-sis	2ryy	8g\	-cel-	8b-\	-cel-	8e-/	8e-/	8E-/	8e-\	8E-\	.	4g/	4ee-\
8r	.	.	8e-\J	.	8ee-\	.	8r	.	.	8f\	-sis	8ee-\	-siſ	8r	8r	8r	8r	8r	.	.	.
4r	.	.	4r	.	8gg\	.	4r	.	.	4r	.	8gg\	in	4r	4r	4r	4r	4r	.	4r	4r
.	.	.	.	.	8e-/J	.	.	.	.	.	.	8e-/	ex-	.	.	.	.	.	.	.	.
!	!	!	!LO:LB:g=original	!	!	!	!LO:LB:g=original	!	!	!LO:LB:g=original	!	!	!	!	!	!	!	!	!	!	!
=30	=30	=30	=30	=30	=30	=30	=30	=30	=30	=30	=30	=30	=30	=30	=30	=30	=30	=30	=30	=30	=30
2BB-/	.	.	8B-/L	.	4g/	.	8BB-/	in	2ryy	8e-\	in	4g\	-cel-	4e-/	4g/	4e-\	4g\	2BB-/	.	4ee-\	4gg\
.	.	.	8e-/	.	.	.	8BB-/	ex-	.	8e-\	ex-	.	.	.	.	.	.	.	.	.	.
!	!	!	!	!	!	!	!	!	!	!LO:TX:t=P:problem=kreska taktowa podwójna	!	!	!	!	!	!	!	!	!	!	!
.	.	.	8d/	.	4f/	.	4BB-/	-cel-	.	4d\	-cel-	4f\	.	4B-/	4b-/	4B-/	4f\	.	.	4b-\	4ff\
.	.	.	8A-/J	.	.	.	.	.	.	.	.	.	.	.	.	.	.	.	.	.	.
=31	=31	=31	=31	=31	=31	=31	=31	=31	=31	=31	=31	=31	=31	=31	=31	=31	=31	=31	=31	=31	=31
*	*	*	*	*	*	*	*	*	*	*	*	*	*	*	*	*	*	*tremolo	*	*	*
!LO:TX:b:i:t=Benedictus:color=grey	!	!	!	!	!	!	!	!	!	!	!	!	!	!	!	!	!	!	!	!	!
!LO:TX:a:i:t=Senza Organo	!	!	!LO:TX:a:i:t=Benedictus:color=grey	!	!	!	!	!	!	!	!	!	!	!	!	!	!	!LO:TX:a:i:t=Benedic:color=grey	!	!LO:TX:a:i:t=Benedictus:color=grey	!
8E-'\L	.	.	16G/LL	.	16e-/LL	.	8E-\	-sis	2ryy	8B-\	-sis	8e-/	-siſ	8e-/	4g/	4G/	4e-\	8E-\L	.	4g/	4ee-\
.	.	.	16B-/	.	16g/	.	.	.	.	.	.	.	.	.	.	.	.	.	.	.	.
8E-'\	.	.	16G/	.	16e-/	.	8r	.	.	8r	.	8r	.	8r	.	.	.	8E-\	.	.	.
.	.	.	16G/JJ	.	16e-/JJ	.	.	.	.	.	.	.	.	.	.	.	.	.	.	.	.
8E-'\	.	.	16G/LL	.	16e-/LL	.	4r	.	.	4r	.	4r	.	4r	4r	4r	4r	8E-\	.	4r	4r
.	.	.	16B-/	.	16g/	.	.	.	.	.	.	.	.	.	.	.	.	.	.	.	.
8E-'\J	.	.	16G/	.	16e-/	.	.	.	.	.	.	.	.	.	.	.	.	8E-\J	.	.	.
.	.	.	16G/JJ	.	16e-/JJ	.	.	.	.	.	.	.	.	.	.	.	.	.	.	.	.
!	!	!	!	!	!LO:PB:g=original	!	!	!	!	!	!	!	!	!	!	!	!	!	!	!	!LO:LB:g=original
=32	=32	=32	=32	=32	=32	=32	=32	=32	=32	=32	=32	=32	=32	=32	=32	=32	=32	=32	=32	=32	=32
*tremolo	*	*	*	*	*	*	*	*	*	*	*	*	*	*	*	*	*	*	*	*	*
!	!	!	!	!	!	!	!LO:TX:b:i:t=Bened&colon;:color=grey	!	!	!LO:TX:a:i:t=Benedictus:color=grey	!	!	!	!	!LO:TX:b:t=2.:color=grey	!	!LO:TX:b:t=2:color=grey	!	!	!LO:TX:b:t=2:color=purple	!
!	!	!	!	!	!	!	!LO:TX:a:t=2.:color=grey	!	!	!LO:TX:b:t=2:color=grey	!	!	!	!LO:TX:a:t=1.	!LO:TX:a:i:t=Bened:color=grey	!LO:TX:a:t=1.	!LO:TX:a:i:t=Benedyctus:color=grey	!	!	!LO:TX:a:t=1	!LO:TX:a:i:t=2:color=purple
8E-\L	.	.	16G/LL	.	16e-/LL	.	2r	.	2ryy	2r	.	2r	.	2r	2r	2r	2r	8E-\L	.	2r	2r
.	.	.	16B-/	.	16g/	.	.	.	.	.	.	.	.	.	.	.	.	.	.	.	.
8E-\	.	.	16G/	.	16e-/	.	.	.	.	.	.	.	.	.	.	.	.	8E-\	.	.	.
.	.	.	16G/JJ	.	16e-/JJ	.	.	.	.	.	.	.	.	.	.	.	.	.	.	.	.
8E-\	.	.	16G/LL	.	16e-/LL	.	.	.	.	.	.	.	.	.	.	.	.	8E-\	.	.	.
.	.	.	16B-/	.	16g/	.	.	.	.	.	.	.	.	.	.	.	.	.	.	.	.
8E-\J	.	.	16G/	.	16e-/	.	.	.	.	.	.	.	.	.	.	.	.	8E-\J	.	.	.
.	.	.	16G/JJ	.	16e-/JJ	.	.	.	.	.	.	.	.	.	.	.	.	.	.	.	.
=33	=33	=33	=33	=33	=33	=33	=33	=33	=33	=33	=33	=33	=33	=33	=33	=33	=33	=33	=33	=33	=33
*	*	*	*	*	*	*	*	*	*	*	*	*	*	*	*	*	*	*	*	*2\right	*
!	!	!	!	!	!	!	!	!	!	!	!	!LO:TX:a:i:t=Benedictus:color=grey	!	!	!	!LO:TX:a:i:t=Benedictus:color=grey	!	!	!	!	!
8BB-/L	.	.	16d/LL	.	16f/LL	.	4BB-/	Be-	2ryy	4d\	Be-	4f/	Be-	2B-/	2b-/	2B-/	2f\	8BB-/L	.	2dd\	2ff\
.	.	.	16f/	.	16a-/	.	.	.	.	.	.	.	.	.	.	.	.	.	.	.	.
8BB-/	.	.	16d/	.	16f/	.	.	.	.	.	.	.	.	.	.	.	.	8BB-/	.	.	.
.	.	.	16d/JJ	.	16f/JJ	.	.	.	.	.	.	.	.	.	.	.	.	.	.	.	.
8BB-/	.	.	16d/LL	.	16f/LL	.	4BB-/	-ne-	.	4d\	-ne-	4f/	-ne-	.	.	.	.	8BB-/	.	.	.
.	.	.	16f/	.	16a-/	.	.	.	.	.	.	.	.	.	.	.	.	.	.	.	.
8BB-/J	.	.	16d/	.	16f/	.	.	.	.	.	.	.	.	.	.	.	.	8BB-/J	.	.	.
.	.	.	16d/JJ	.	16f/JJ	.	.	.	.	.	.	.	.	.	.	.	.	.	.	.	.
!	!	!	!	!	!	!	!	!	!	!	!	!	!	!	!	!	!	!LO:LB:g=original	!	!	!
=34	=34	=34	=34	=34	=34	=34	=34	=34	=34	=34	=34	=34	=34	=34	=34	=34	=34	=34	=34	=34	=34
8BB-/L	.	.	16d/LL	.	16f/LL	.	4BB-/	-di-	2ryy	4d\	-di-	4f/	-di-	4B-/	4b-/	4B-/	4f\	8BB-/L	.	4dd\	4ff\
.	.	.	16f/	.	16a-/	.	.	.	.	.	.	.	.	.	.	.	.	.	.	.	.
8BB-/	.	.	16d/	.	16f/	.	.	.	.	.	.	.	.	.	.	.	.	8BB-/	.	.	.
.	.	.	16d/JJ	.	16f/JJ	.	.	.	.	.	.	.	.	.	.	.	.	.	.	.	.
8BB-/	.	.	16d/LL	.	16f/LL	.	8BB-/	-ctus	.	8d\	-ctus	8f/	-ctus	4B-/	4b-/	4B-/	4f\	8BB-/	.	4dd\	4ff\
.	.	.	16f/	.	16a-/	.	.	.	.	.	.	.	.	.	.	.	.	.	.	.	.
8BB-/J	.	.	16d/	.	16f/	.	8BB-/	qui	.	8d\	qui	8f/	qui	.	.	.	.	8BB-/J	.	.	.
.	.	.	16d/JJ	.	16f/JJ	.	.	.	.	.	.	.	.	.	.	.	.	.	.	.	.
!LO:LB:g=original	!	!	!	!	!	!	!	!	!	!	!	!LO:LB:g=original	!	!	!	!	!	!	!	!	!
=35	=35	=35	=35	=35	=35	=35	=35	=35	=35	=35	=35	=35	=35	=35	=35	=35	=35	=35	=35	=35	=35
8E-\L	.	.	16e-/LL	.	16g/LL	.	4E-\	ve-	2ryy	4e-\	ve-	4g\	ve-	4e-/	4g/	4e-\	4g\	8E-\L	.	4ee-\	4gg\
.	.	.	16g/	.	16b-/	.	.	.	.	.	.	.	.	.	.	.	.	.	.	.	.
8E-\	.	.	16e-/	.	16g/	.	.	.	.	.	.	.	.	.	.	.	.	8E-\	.	.	.
.	.	.	16e-/JJ	.	16g/JJ	.	.	.	.	.	.	.	.	.	.	.	.	.	.	.	.
8E-\	.	.	16e-/LL	.	16g/LL	.	8E-\	-nit	.	8e-\	-nit	8g\	-nit	4e-/	4g/	4e-\	4g\	8E-\	.	4ee-\	4gg\
.	.	.	16g/	.	16b-/	.	.	.	.	.	.	.	.	.	.	.	.	.	.	.	.
8E-\J	.	.	16e-/	.	16g/	.	8E-\	in	.	8e-\	in	8g\	in	.	.	.	.	8E-\J	.	.	.
.	.	.	16e-/JJ	.	16g/JJ	.	.	.	.	.	.	.	.	.	.	.	.	.	.	.	.
=36	=36	=36	=36	=36	=36	=36	=36	=36	=36	=36	=36	=36	=36	=36	=36	=36	=36	=36	=36	=36	=36
8E-\L	.	.	16e-/LL	.	16g/LL	.	4E-\	no-	2ryy	4e-\	no-	4g\	no-	4e-/	4g/	4e-\	4g\	8E-\L	.	4ee-\	4gg\
.	.	.	16g/	.	16b-/	.	.	.	.	.	.	.	.	.	.	.	.	.	.	.	.
8E-\	.	.	16e-/	.	16g/	.	.	.	.	.	.	.	.	.	.	.	.	8E-\	.	.	.
.	.	.	16e-/JJ	.	16g/JJ	.	.	.	.	.	.	.	.	.	.	.	.	.	.	.	.
!	!	!	!	!	!	!	!	!	!	!	!	!	!	!	!LO:TX:a:t=vi:color=grey	!	!	!	!	!	!
8E-\	.	.	16e-/LL	.	16g/LL	.	8E-\	-mi-	.	8e-\	-mi-	8g\	-mi-	4r	4r	4r	4r	8E-\	.	4r	4r
.	.	.	16g/	.	16b-/	.	.	.	.	.	.	.	.	.	.	.	.	.	.	.	.
8E-\J	.	.	16e-/	.	16g/	.	8E-\	-ne	.	8e-\	-ne	8g\	-ne	.	.	.	.	8E-\J	.	.	.
.	.	.	16e-/JJ	.	16g/JJ	.	.	.	.	.	.	.	.	.	.	.	.	.	.	.	.
!	!	!	!LO:LB:g=original	!	!	!	!LO:LB:g=original	!	!	!	!	!	!	!	!	!	!	!	!	!	!
=37	=37	=37	=37	=37	=37	=37	=37	=37	=37	=37	=37	=37	=37	=37	=37	=37	=37	=37	=37	=37	=37
!	!	!	!	!	!	!	!	!	!	!	!	!	!	!	!LO:TX:a:t=4.:color=grey	!	!	!	!	!	!
!	!	!	!	!	!	!	!	!	!	!	!	!	!	!LO:TX:a:t=4	!LO:TX:t=P:problem=takty nr 38-64 dopisane ołówkiem	!LO:TX:a:t=4	!LO:TX:a:t=4	!	!	!LO:TX:a:t=2	!LO:TX:a:t=2
8AA-X/L	.	.	16c/LL	.	16a-/LL	.	4.AA-/	Do-	2ryy	4.e-\	Do-	4.a-X\	Do-	0r	0r@	0r	0r	8AA-X/L	.	1r	1r
.	.	.	16e-/	.	16cc/	.	.	.	.	.	.	.	.	.	.	.	.	.	.	.	.
8AA-/	.	.	16c/	.	16a-/	.	.	.	.	.	.	.	.	.	.	.	.	8AA-/	.	.	.
.	.	.	16c/JJ	.	16a-/JJ	.	.	.	.	.	.	.	.	.	.	.	.	.	.	.	.
!	!	!	!	!	!LO:LB:g=original	!	!	!	!	!	!	!	!	!	!	!	!	!	!	!	!
8AA-/	.	.	16c/LL	.	16a-/LL	.	.	.	.	.	.	.	.	.	.	.	.	8AA-/	.	.	.
.	.	.	16e-/	.	16cc/	.	.	.	.	.	.	.	.	.	.	.	.	.	.	.	.
8AA-/J	.	.	16c/	.	16a-/	.	8AA-/	-mi-	.	8e-\	-mi-	8a-\	-mi-	.	.	.	.	8AA-/J	.	.	.
.	.	.	16c/JJ	.	16a-/JJ	.	.	.	.	.	.	.	.	.	.	.	.	.	.	.	.
!	!	!	!	!	!	!	!	!	!	!LO:LB:g=original	!	!	!	!	!	!	!	!	!	!	!
=38	=38	=38	=38	=38	=38	=38	=38	=38	=38	=38	=38	=38	=38	=38	=38	=38	=38	=38	=38	=38	=38
8AA-/L	.	.	16c/LL	.	16a-/LL	.	4AA-/	-ne	2ryy	4e-\	-ni	4a-\	-ni	.	.	.	.	8AA-/L	.	.	.
.	.	.	16e-/	.	16cc/	.	.	.	.	.	.	.	.	.	.	.	.	.	.	.	.
8AA-/	.	.	16c/	.	16a-/	.	.	.	.	.	.	.	.	.	.	.	.	8AA-/	.	.	.
.	.	.	16c/JJ	.	16a-/JJ	.	.	.	.	.	.	.	.	.	.	.	.	.	.	.	.
8AA-/	.	.	16c/LL	.	16a-/LL	.	4r	.	.	8r	.	8r	.	.	.	.	.	8AA-/	.	.	.
.	.	.	16e-/	.	16cc/	.	.	.	.	.	.	.	.	.	.	.	.	.	.	.	.
8AA-/J	.	.	16c/	.	16a-/	.	.	.	.	8a-\	qui	8a-\	qui	.	.	.	.	8AA-/J	.	.	.
.	.	.	16c/JJ	.	16a-/JJ	.	.	.	.	.	.	.	.	.	.	.	.	.	.	.	.
*Xtremolo	*	*	*	*	*	*	*	*	*	*	*	*	*	*	*	*	*	*Xtremolo	*	*	*
=39	=39	=39	=39	=39	=39	=39	=39	=39	=39	=39	=39	=39	=39	=39	=39	=39	=39	=39	=39	=39	=39
!LO:TX:t=P:problem=mixed beam	!	!	!	!	!	!	!	!	!	!	!	!	!	!	!	!	!	!LO:TX:t=P:problem=mixed beam	!	!	!
8BB-/L	.	.	16f/LL	.	16a-/LL	.	4r	.	2ryy	4f\	ve-	4a-\	ve-	.	.	.	.	8BB-/L	.	8ff\L	8aa-\L
.	.	.	16B-/	.	16B-/	.	.	.	.	.	.	.	.	.	.	.	.	.	.	.	.
8B-\	.	.	16f/	.	16a-/	.	.	.	.	.	.	.	.	.	.	.	.	8B-\	.	8ff\	8aa-\
.	.	.	16f/JJ	.	16a-/JJ	.	.	.	.	.	.	.	.	.	.	.	.	.	.	.	.
8B-\	.	.	16e-/LL	.	16g/LL	.	8r	.	.	8e-\	-nit	8g\	-nit	.	.	.	.	8B-\	.	8ee-\	8gg\
.	.	.	16B-/	.	16B-/	.	.	.	.	.	.	.	.	.	.	.	.	.	.	.	.
8B-\J	.	.	16e-/	.	16g/	.	8BB-/	in	.	8e-\	in	8g\	in	.	.	.	.	8B-\J	.	8ee-\J	8gg\J
.	.	.	16e-/JJ	.	16g/JJ	.	.	.	.	.	.	.	.	.	.	.	.	.	.	.	.
=40	=40	=40	=40	=40	=40	=40	=40	=40	=40	=40	=40	=40	=40	=40	=40	=40	=40	=40	=40	=40	=40
*rep	*	*	*	*	*	*	*	*	*	*	*	*	*	*	*	*	*	*rep	*	*	*
!LO:TX:t=P:problem=mixed beam	!	!	!	!	!	!	!	!	!	!	!	!	!	!	!	!	!	!	!	!	!
!	!	!	!	!	!	!	!	!	!	!	!	!	!	!	!	!	!	!LO:TX:t=P:problem=mixed beam	!	!	!
8BB-/L	.	.	16d/LL	.	16f/LL	.	4F\	no-	2ryy	4d\	no-	4f\	no-	.	.	.	.	8BB-/L	.	8dd\L	8ff\L
.	.	.	16B-/	.	16B-/	.	.	.	.	.	.	.	.	.	.	.	.	.	.	.	.
8B-\	.	.	16d/	.	16f/	.	.	.	.	.	.	.	.	.	.	.	.	8B-\	.	8dd\	8ff\
.	.	.	16d/JJ	.	16f/JJ	.	.	.	.	.	.	.	.	.	.	.	.	.	.	.	.
8B-\	.	.	16e-/LL	.	16g/LL	.	8E-\	-mi-	.	8e-\	-mi-	8g\	-mi-	.	.	.	.	8B-\	.	8ee-\	8gg\
.	.	.	16B-/	.	16B-/	.	.	.	.	.	.	.	.	.	.	.	.	.	.	.	.
!	!	!	!	!	!	!	!	!	!	!	!	!LO:TX:a:t=4:color=grey	!	!	!	!	!	!	!	!	!
8B-\J	.	.	16e-/	.	16g/	.	8E-\	-ne	.	8e-\	-ne	8g\	-ne	.	.	.	.	8B-\J	.	8ee-\J	8gg\J
.	.	.	16e-/JJ	.	16g/JJ	.	.	.	.	.	.	.	.	.	.	.	.	.	.	.	.
!	!	!	!	!	!	!	!	!	!	!	!	!	!	!	!	!	!	!	!	!LO:LB:g=original	!
*Xrep	*	*	*	*	*	*	*	*	*	*	*	*	*	*	*	*	*	*Xrep	*	*	*
=41	=41	=41	=41	=41	=41	=41	=41	=41	=41	=41	=41	=41	=41	=41	=41	=41	=41	=41	=41	=41	=41
*rep	*	*	*	*	*	*	*	*	*	*	*	*	*	*	*	*	*	*rep	*	*	*
!LO:TX:t=P:problem=mixed beam	!	!	!	!	!	!	!	!	!	!	!	!	!	!	!	!	!	!	!	!	!
!	!	!	!	!	!	!	!	!	!	!	!	!	!	!	!	!	!	!LO:TX:t=P:problem=mixed beam	!	!	!
8BB-/L	.	.	16f/LL	.	16a-/LL	.	4D\	Do-	2ryy	4f\	Do-	4a-\	Do-	4B-/	4b-/@	4B-/	4f\	8BB-/L	.	8ff\L	8aa-\L
.	.	.	16B-/	.	16B-/	.	.	.	.	.	.	.	.	.	.	.	.	.	.	.	.
8B-\	.	.	16f/	.	16a-/	.	.	.	.	.	.	.	.	.	.	.	.	8B-\	.	8ff\	8aa-\
.	.	.	16f/JJ	.	16a-/JJ	.	.	.	.	.	.	.	.	.	.	.	.	.	.	.	.
8B-\	.	.	16e-/LL	.	16g/LL	.	4E-\	-mi-	.	4e-\	-mi-	4g\	-mi-	4e-/	4g/@	4e-\	4g\	8B-\	.	8ee-\	8gg\
.	.	.	16B-/	.	16B-/	.	.	.	.	.	.	.	.	.	.	.	.	.	.	.	.
8B-\J	.	.	16e-/	.	16g/	.	.	.	.	.	.	.	.	.	.	.	.	8B-\J	.	8ee-\J	8gg\J
.	.	.	16e-/JJ	.	16g/JJ	.	.	.	.	.	.	.	.	.	.	.	.	.	.	.	.
*Xrep	*	*	*	*	*	*	*	*	*	*	*	*	*	*	*	*	*	*Xrep	*	*	*
!	!	!	!	!	!	!	!	!	!	!	!	!LO:LB:g=original	!	!	!	!	!LO:LB:g=original	!	!	!	!
=42	=42	=42	=42	=42	=42	=42	=42	=42	=42	=42	=42	=42	=42	=42	=42	=42	=42	=42	=42	=42	=42
*	*	*	*	*	*	*	*	*	*	*	*	*	*	*	*tremolo	*	*	*	*	*	*
!LO:TX:t=P:problem=mixed beam	!	!	!	!	!	!	!	!	!	!	!	!	!	!	!LO:TX:b:t=...	!	!	!LO:TX:t=P:problem=mixed beam	!	!	!
8B-\L	.	.	16d/LL	.	16f/LL	.	4BB-/	-ni	2ryy	4d\	-ni	4f\	-ni	8B-/L	8b-'/L@	8B-/L	8f\L	8B-\L	.	16dd\LL	16ff\LL
.	.	.	16d/	.	16b-/	.	.	.	.	.	.	.	.	.	.	.	.	.	.	16dd\	16bb-\
8BB-/	.	.	16d/	.	16b-/	.	.	.	.	.	.	.	.	8B-/	8b-'/@	8B-/	8f\	8BB-/	.	16dd\	16bb-\
.	.	.	16d/JJ	.	16b-/JJ	.	.	.	.	.	.	.	.	.	.	.	.	.	.	16dd\JJ	16bb-\JJ
8BB-/J	.	.	8d/	.	8b-\	.	4r	.	.	4r	.	8r	.	8B-/J	8b-'/J@	8B-/J	8f\J	8BB-/J	.	8dd\	8bb-\
*	*	*	*	*	*	*	*	*	*	*	*	*	*	*	*Xtremolo	*	*	*	*	*	*
!	!	!	!	!	!	!	!	!	!	!	!	!LO:TX:a:i:t=Solo	!	!	!	!	!	!	!	!	!
8r	.	.	8r	.	8r	.	.	.	.	.	.	8b-\	qui	8r	8r@	8r	8r	8r	.	8r	8r
!	!	!	!	!	!	!	!	!	!	!	!	!	!	!LO:LB:g=original	!	!	!	!	!	!	!LO:LB:g=original
=43	=43	=43	=43	=43	=43	=43	=43	=43	=43	=43	=43	=43	=43	=43	=43	=43	=43	=43	=43	=43	=43
!	!	!	!	!	!	!	!	!	!	!	!	!	!	!	!LO:TX:b:t=2:color=grey	!	!	!	!	!	!
!	!	!	!	!	!	!	!LO:TX:a:t=15.	!	!	!LO:TX:a:t=13.	!	!	!	!LO:TX:a:t=2	!LO:TX:a:t=2.:color=grey	!LO:TX:a:t=2.	!LO:TX:a:t=2	!	!	!LO:TX:a:t=2	!LO:TX:a:t=2
8E-\	.	.	8r	.	8r	.	0r	.	2ryy	0r	.	8.b-\L	ve-	1r	2r@	1r	1r	8E-\	.	1r	1r
!	!	!	!LO:TX:a:t=g	!	!	!	!	!	!	!	!	!	!	!	!	!	!	!	!	!	!
8r	.	.	8b- 8g@\L	.	8b-\	.	.	.	.	.	.	.	.	.	.	.	.	8r	.	.	.
.	.	.	.	.	.	.	.	.	.	.	.	16ee-\Jk	.	.	.	.	.	.	.	.	.
4r	.	.	8b- 8g@\	.	8b-\L	.	.	.	.	.	.	8ee-\	-nit	.	.	.	.	4r	.	.	.
!	!	!	!	!	!	!	!	!	!	!	!	!LO:N:vis=8	!	!	!	!	!	!	!	!	!
.	.	.	8b- 8g@\J	.	8b-\J	.	.	.	.	.	.	16r	.	.	.	.	.	.	.	.	.
.	.	.	.	.	.	.	.	.	.	.	.	16ee-\	qui	.	.	.	.	.	.	.	.
!LO:LB:g=original	!	!	!LO:LB:g=original	!	!LO:LB:g=original	!	!	!	!	!	!	!	!	!	!	!	!	!	!	!	!
=44	=44	=44	=44	=44	=44	=44	=44	=44	=44	=44	=44	=44	=44	=44	=44	=44	=44	=44	=44	=44	=44
8E-\	.	.	8r	.	8r	.	.	.	2ryy	.	.	8.ee-\L	ve-	.	2r@	.	.	8E-\	.	.	.
!	!	!	!LO:TX:a:t=g	!	!	!	!	!	!	!	!	!	!	!	!	!	!	!	!	!	!
8r	.	.	8b- 8g@\L	.	8b-\L	.	.	.	.	.	.	.	.	.	.	.	.	8r	.	.	.
.	.	.	.	.	.	.	.	.	.	.	.	16g\Jk	.	.	.	.	.	.	.	.	.
4r	.	.	8b- 8g@\	.	8b-\	.	.	.	.	.	.	8g\	-nit	.	.	.	.	4r	.	.	.
!	!	!	!	!	!	!	!	!	!	!	!	!LO:N:vis=8	!	!	!	!	!	!	!	!	!
.	.	.	8b- 8g@\J	.	8b-\J	.	.	.	.	.	.	16r	.	.	.	.	.	.	.	.	.
.	.	.	.	.	.	.	.	.	.	.	.	16g\	in	.	.	.	.	.	.	.	.
=45	=45	=45	=45	=45	=45	=45	=45	=45	=45	=45	=45	=45	=45	=45	=45	=45	=45	=45	=45	=45	=45
8E-\	.	.	8r	.	8r	.	.	.	2ryy	.	.	16g\LL	no-	8r	8r@	8e-\	8g\	8E-\	.	8ee-\	8gg\
.	.	.	.	.	.	.	.	.	.	.	.	16b-\JJ	.	.	.	.	.	.	.	.	.
!	!	!	!	!	!	!	!	!	!	!	!	!	!	!	!LO:N:vis=16	!	!	!	!	!	!
8r	.	.	8e-/	.	8g/	.	.	.	.	.	.	16b-\	-mi-	8e-/	8g/@	8r	8r	8r	.	8r	8r
.	.	.	.	.	.	.	.	.	.	.	.	16b-\	-ne	.	.	.	.	.	.	.	.
8B-\	.	.	8r	.	8r	.	.	.	.	.	.	8.f\	Do-	8r	8r@	8B-/	8f\	8B-\	.	8b-\	8ff\
8r	.	.	8B-/	.	8f/	.	.	.	.	.	.	.	.	8B-/	8b-/@	8r	8r	8r	.	8r	8r
.	.	.	.	.	.	.	.	.	.	.	.	16b-\	-mi-	.	.	.	.	.	.	.	.
!	!	!	!	!	!	!	!	!	!	!	!	!	!	!	!	!LO:LB:g=original	!	!	!	!	!
=46	=46	=46	=46	=46	=46	=46	=46	=46	=46	=46	=46	=46	=46	=46	=46	=46	=46	=46	=46	=46	=46
8E-\	.	.	8r	.	8r	.	.	.	2ryy	.	.	4b-\	.	8e-/	8g/@	8G/	8e-\	8E-\	.	8g/	4ee-\
8r	.	.	8G/L	.	8e-/L	.	.	.	.	.	.	.	.	8r	8r@	8r	8r	8r	.	8r	.
4r	.	.	8G/	.	8e-/	.	.	.	.	.	.	8e-\	-ni	4r	4r@	4r	4r	4r	.	4r	4r
.	.	.	8G/J	.	8e-/J	.	.	.	.	.	.	8r	.	.	.	.	.	.	.	.	.
!	!	!	!	!	!	!	!	!	!	!	!	!LO:LB:g=original	!	!	!	!	!	!LO:LB:g=original	!	!	!
=47	=47	=47	=47	=47	=47	=47	=47	=47	=47	=47	=47	=47	=47	=47	=47	=47	=47	=47	=47	=47	=47
!	!	!	!	!	!	!	!	!	!	!	!	!LO:TX:a:t=5:color=grey	!	!LO:TX:a:t=2	!LO:TX:a:t=2.:color=grey	!LO:TX:a:t=2.	!LO:TX:a:t=2	!	!	!LO:TX:a:t=2	!LO:TX:a:t=2
8E-\	.	.	8r	.	8r	.	0r	.	2ryy	0r	.	0r	.	1r	2r@	1r	1r	8E-\	.	1r	1r
8r	.	.	8g/L	.	8b-\L	.	.	.	.	.	.	.	.	.	.	.	.	8r	.	.	.
4r	.	.	8g/	.	8b-\	.	.	.	.	.	.	.	.	.	.	.	.	4r	.	.	.
.	.	.	8g/J	.	8b-\J	.	.	.	.	.	.	.	.	.	.	.	.	.	.	.	.
=48	=48	=48	=48	=48	=48	=48	=48	=48	=48	=48	=48	=48	=48	=48	=48	=48	=48	=48	=48	=48	=48
8E-\	.	.	8r	.	8r	.	.	.	2ryy	.	.	.	.	.	2r@	.	.	8E-\	.	.	.
8r	.	.	8g/L	.	8b-\L	.	.	.	.	.	.	.	.	.	.	.	.	8r	.	.	.
4r	.	.	8g/	.	8b-\	.	.	.	.	.	.	.	.	.	.	.	.	4r	.	.	.
.	.	.	8g/J	.	8b-\J	.	.	.	.	.	.	.	.	.	.	.	.	.	.	.	.
=49	=49	=49	=49	=49	=49	=49	=49	=49	=49	=49	=49	=49	=49	=49	=49	=49	=49	=49	=49	=49	=49
8E-\	.	.	8r	.	8r	.	.	.	2ryy	.	.	.	.	8r	8r@	8e-\	8g\	8E-\	.	8ee-\	8gg\
!	!	!	!	!	!	!	!	!	!	!	!	!	!	!	!LO:N:vis=16	!	!	!	!	!	!
8r	.	.	8e-/	.	8g/	.	.	.	.	.	.	.	.	8e-/	8g/@	8r	8r	8r	.	8r	8r
8B-\	.	.	8r	.	8r	.	.	.	.	.	.	.	.	8r	8r@	8B-/	8f\	8B-\	.	8b-\	8ff\
!	!	!	!	!	!	!	!	!	!	!	!	!	!	!LO:N:vis=8	!	!	!	!	!	!	!
8r	.	.	8B-/	.	8f/	.	.	.	.	.	.	.	.	16B-/	8b-/@	8r	8r	8r	.	8r	8r
!	!	!	!	!	!	!	!	!	!	!	!	!	!	!LO:N:vis=8	!	!	!	!	!	!	!
.	.	.	.	.	.	.	.	.	.	.	.	.	.	16r	.	.	.	.	.	.	.
=50	=50	=50	=50	=50	=50	=50	=50	=50	=50	=50	=50	=50	=50	=50	=50	=50	=50	=50	=50	=50	=50
*tremolo	*	*	*	*	*	*	*	*	*	*	*	*	*	*	*	*	*	*tremolo	*	*	*
8E-\L	.	.	16G/LL	.	16e-/LL	.	.	.	2ryy	.	.	.	.	8e-/	4g/@	8G/	8e-\	8E-\L	.	4g/	4ee-\
.	.	.	16B-/	.	16g/	.	.	.	.	.	.	.	.	.	.	.	.	.	.	.	.
8E-\	.	.	16G/	.	16e-/	.	.	.	.	.	.	.	.	8r	.	8r	8r	8E-\	.	.	.
.	.	.	16G/JJ	.	16e-/JJ	.	.	.	.	.	.	.	.	.	.	.	.	.	.	.	.
8E-\	.	.	16G/LL	.	16e-/LL	.	.	.	.	.	.	.	.	4r	4r@	4r	4r	8E-\	.	4r	4r
.	.	.	16B-/	.	16g/	.	.	.	.	.	.	.	.	.	.	.	.	.	.	.	.
8E-\J	.	.	16G/	.	16e-/	.	.	.	.	.	.	.	.	.	.	.	.	8E-\J	.	.	.
.	.	.	16G/JJ	.	16e-/JJ	.	.	.	.	.	.	.	.	.	.	.	.	.	.	.	.
!	!	!	!	!	!	!	!	!	!	!	!	!	!	!	!	!	!	!	!	!LO:LB:g=original	!
=51	=51	=51	=51	=51	=51	=51	=51	=51	=51	=51	=51	=51	=51	=51	=51	=51	=51	=51	=51	=51	=51
!	!	!	!	!	!	!	!	!	!	!	!	!	!	!LO:TX:a:t=8	!LO:TX:a:t=13.	!LO:TX:a:t=8.	!LO:TX:a:t=8	!	!	!LO:TX:a:t=8	!LO:TX:a:t=8
8E-\L	.	.	16G/LL	.	16e-/LL	.	0r	.	2ryy	0r	.	2r	.	0r	2r	0r	0r	8E-\L	.	0r	0r
.	.	.	16B-/	.	16g/	.	.	.	.	.	.	.	.	.	.	.	.	.	.	.	.
8E-\	.	.	16G/	.	16e-/	.	.	.	.	.	.	.	.	.	.	.	.	8E-\	.	.	.
.	.	.	16G/JJ	.	16e-/JJ	.	.	.	.	.	.	.	.	.	.	.	.	.	.	.	.
8E-\	.	.	16G/LL	.	16e-/LL	.	.	.	.	.	.	.	.	.	.	.	.	8E-\	.	.	.
.	.	.	16B-/	.	16g/	.	.	.	.	.	.	.	.	.	.	.	.	.	.	.	.
8E-\J	.	.	16G/	.	16e-/	.	.	.	.	.	.	.	.	.	.	.	.	8E-\J	.	.	.
!	!	!	!LO:TX:b:i:t=Verte Subito	!	!	!	!	!	!	!	!	!	!	!	!	!	!	!	!	!	!
.	.	.	16G/JJ	.	16e-/JJ	.	.	.	.	.	.	.	.	.	.	.	.	.	.	.	.
!	!	!	!LO:PB:g=original	!	!LO:LB:g=original	!	!	!	!	!	!	!	!	!	!	!	!	!	!	!	!
=52	=52	=52	=52	=52	=52	=52	=52	=52	=52	=52	=52	=52	=52	=52	=52	=52	=52	=52	=52	=52	=52
*	*	*	*	*	*tremolo	*	*	*	*	*	*	*	*	*	*	*	*	*	*	*	*
8F\L	n	.	16e-/LL	.	16an/LL	.	.	.	2ryy	.	.	4.an\	Be-	.	2r	.	.	8F\L	.	.	.
.	.	.	16f/	.	16a/	.	.	.	.	.	.	.	.	.	.	.	.	.	.	.	.
8F\	.	.	16c/	.	16a/	.	.	.	.	.	.	.	.	.	.	.	.	8F\	.	.	.
.	.	.	16c/JJ	.	16a/	.	.	.	.	.	.	.	.	.	.	.	.	.	.	.	.
8F\	.	.	16e-/LL	.	16a/	.	.	.	.	.	.	.	.	.	.	.	.	8F\	.	.	.
.	.	.	16f/	.	16a/	.	.	.	.	.	.	.	.	.	.	.	.	.	.	.	.
8F\J	.	.	16c/	.	16a/	.	.	.	.	.	.	8a\	-ne-	.	.	.	.	8F\J	.	.	.
.	.	.	16c/JJ	.	16a/JJ	.	.	.	.	.	.	.	.	.	.	.	.	.	.	.	.
*	*	*	*	*	*Xtremolo	*	*	*	*	*	*	*	*	*	*	*	*	*	*	*	*
!LO:PB:g=original	!	!	!	!	!	!	!	!	!	!	!	!	!	!	!	!	!	!	!	!	!
=53	=53	=53	=53	=53	=53	=53	=53	=53	=53	=53	=53	=53	=53	=53	=53	=53	=53	=53	=53	=53	=53
*	*	*	*tremolo	*	*	*	*	*	*	*	*	*	*	*	*	*	*	*	*	*	*
!	!	!	!	!	!LO:TX:t=P:problem=mixed beam	!	!	!	!	!	!	!	!	!	!	!	!	!	!	!	!
8BB-/L	.	.	8d/L	.	16b-\LL	.	.	.	2ryy	.	.	4b-\	-di-	.	2r	.	.	8BB-/L	.	.	.
.	.	.	.	.	16dd\	.	.	.	.	.	.	.	.	.	.	.	.	.	.	.	.
8BB-/	.	.	8d/	.	16f/	.	.	.	.	.	.	.	.	.	.	.	.	8BB-/	.	.	.
.	.	.	.	.	16f/JJ	.	.	.	.	.	.	.	.	.	.	.	.	.	.	.	.
!	!	!	!	!	!LO:TX:t=P:problem=mixed beam	!	!	!	!	!	!	!	!	!	!	!	!	!	!	!	!
8BB-/	.	.	8d/	.	16b-\LL	.	.	.	.	.	.	16b-\LL	-ctus	.	.	.	.	8BB-/	.	.	.
!	!	!	!	!	!	!	!	!	!	!	!	!LO:SIC:v:s=16an\JJ	!	!	!	!	!	!	!	!	!
.	.	.	.	.	16dd\	.	.	.	.	.	.	16a-\JJ	.	.	.	.	.	.	.	.	.
8BB-/J	.	.	8d/J	.	16f/	.	.	.	.	.	.	16g\LL	.	.	.	.	.	8BB-/J	.	.	.
.	.	.	.	.	16f/JJ	.	.	.	.	.	.	16f\JJ	.	.	.	.	.	.	.	.	.
*	*	*	*Xtremolo	*	*	*	*	*	*	*	*	*	*	*	*	*	*	*	*	*	*
=54	=54	=54	=54	=54	=54	=54	=54	=54	=54	=54	=54	=54	=54	=54	=54	=54	=54	=54	=54	=54	=54
*	*	*	*	*	*tremolo	*	*	*	*	*	*	*	*	*	*	*	*	*	*	*	*
8F\L	.	.	16e-/LL	.	16an/LL	.	.	.	2ryy	.	.	4.f/	be-	.	2r	.	.	8F\L	.	.	.
.	.	.	16f/	.	16a/	.	.	.	.	.	.	.	.	.	.	.	.	.	.	.	.
8F\	.	.	16c/	.	16a/	.	.	.	.	.	.	.	.	.	.	.	.	8F\	.	.	.
.	.	.	16c/JJ	.	16a/	.	.	.	.	.	.	.	.	.	.	.	.	.	.	.	.
8F\	.	.	16e-/LL	.	16a/	.	.	.	.	.	.	.	.	.	.	.	.	8F\	.	.	.
.	.	.	16f/	.	16a/	.	.	.	.	.	.	.	.	.	.	.	.	.	.	.	.
8F\J	.	.	16c/	.	16a/	.	.	.	.	.	.	8e-/	-ne-	.	.	.	.	8F\J	.	.	.
.	.	.	16c/JJ	.	16a/JJ	.	.	.	.	.	.	.	.	.	.	.	.	.	.	.	.
*	*	*	*	*	*Xtremolo	*	*	*	*	*	*	*	*	*	*	*	*	*	*	*	*
=55	=55	=55	=55	=55	=55	=55	=55	=55	=55	=55	=55	=55	=55	=55	=55	=55	=55	=55	=55	=55	=55
*	*	*	*tremolo	*	*	*	*	*	*	*	*	*	*	*	*	*	*	*	*	*	*
!	!	!	!	!	!LO:TX:t=P:problem=mixed beam	!	!	!	!	!	!	!	!	!	!	!	!	!	!	!	!
8BB-/L	.	.	8d/L	.	16b-\LL	.	1r	.	2ryy	2r	.	8d/	-di-	0r	2r	0r	0r	8BB-/L	.	0r	0r
.	.	.	.	.	16dd\	.	.	.	.	.	.	.	.	.	.	.	.	.	.	.	.
8BB-/	.	.	8d/	.	16f/	.	.	.	.	.	.	8d/	-ctus	.	.	.	.	8BB-/	.	.	.
.	.	.	.	.	16f/JJ	.	.	.	.	.	.	.	.	.	.	.	.	.	.	.	.
!	!	!	!	!	!LO:TX:t=P:problem=mixed beam	!	!	!	!	!	!	!	!	!	!	!	!	!	!	!	!
8BB-/	.	.	8d/	.	16b-\LL	.	.	.	.	.	.	4r	.	.	.	.	.	8BB-/	.	.	.
.	.	.	.	.	16dd\	.	.	.	.	.	.	.	.	.	.	.	.	.	.	.	.
8BB-/J	.	.	8d/J	.	16f/	.	.	.	.	.	.	.	.	.	.	.	.	8BB-/J	.	.	.
.	.	.	.	.	16f/JJ	.	.	.	.	.	.	.	.	.	.	.	.	.	.	.	.
*	*	*	*Xtremolo	*	*	*	*	*	*	*	*	*	*	*	*	*	*	*	*	*	*
=56	=56	=56	=56	=56	=56	=56	=56	=56	=56	=56	=56	=56	=56	=56	=56	=56	=56	=56	=56	=56	=56
*	*	*	*	*	*tremolo	*	*	*	*	*	*	*	*	*	*	*	*	*	*	*	*
!	!	!	!	!	!	!	!	!	!	!LO:SIC:v:s=4.an\	!	!	!	!	!	!	!	!	!	!	!
!	!	!	!	!	!	!	!	!	!	!LO:TX:a:i:t=Solo	!	!	!	!	!	!	!	!	!	!	!
8F\L	.	.	16e-/LL	.	16an/LL	.	.	.	2ryy	4.a-\	Be-	4.cc\	Be-	.	2r	.	.	8F\L	.	.	.
.	.	.	16f/	.	16a/	.	.	.	.	.	.	.	.	.	.	.	.	.	.	.	.
8F\	.	.	16c/	.	16a/	.	.	.	.	.	.	.	.	.	.	.	.	8F\	.	.	.
.	.	.	16c/JJ	.	16a/	.	.	.	.	.	.	.	.	.	.	.	.	.	.	.	.
8F\	.	.	16e-/LL	.	16a/	.	.	.	.	.	.	.	.	.	.	.	.	8F\	.	.	.
.	.	.	16f/	.	16a/	.	.	.	.	.	.	.	.	.	.	.	.	.	.	.	.
!	!	!	!	!	!	!	!	!	!	!LO:SIC:v:s=8a\	!	!	!	!	!	!	!	!	!	!	!
8F\J	.	.	16c/	.	16a/	.	.	.	.	8a-\	-ne-	8cc\	-ne-	.	.	.	.	8F\J	.	.	.
.	.	.	16c/JJ	.	16a/JJ	.	.	.	.	.	.	.	.	.	.	.	.	.	.	.	.
*	*	*	*	*	*Xtremolo	*	*	*	*	*	*	*	*	*	*	*	*	*	*	*	*
=57	=57	=57	=57	=57	=57	=57	=57	=57	=57	=57	=57	=57	=57	=57	=57	=57	=57	=57	=57	=57	=57
*	*	*	*tremolo	*	*	*	*	*	*	*	*	*	*	*	*	*	*	*	*	*	*
!	!	!	!	!	!LO:TX:t=P:problem=mixed beam	!	!	!	!	!	!	!	!	!	!	!	!	!	!	!	!
8BB-/L	.	.	8d/L	.	16b-\LL	.	2r	.	2ryy	4b-\	-dic-	4.dd\	-di-	.	2r	.	.	8BB-/L	.	.	.
.	.	.	.	.	16dd\	.	.	.	.	.	.	.	.	.	.	.	.	.	.	.	.
8BB-/	.	.	8d/	.	16f/	.	.	.	.	.	.	.	.	.	.	.	.	8BB-/	.	.	.
.	.	.	.	.	16f/JJ	.	.	.	.	.	.	.	.	.	.	.	.	.	.	.	.
!	!	!	!	!	!LO:TX:t=P:problem=mixed beam	!	!	!	!	!	!	!	!	!	!	!	!	!	!	!	!
8BB-/	.	.	8d/	.	16b-\LL	.	.	.	.	16b-\LL	-tus	.	.	.	.	.	.	8BB-/	.	.	.
.	.	.	.	.	16dd\	.	.	.	.	16a-\JJ	.	.	.	.	.	.	.	.	.	.	.
8BB-/J	.	.	8d/J	.	16f/	.	.	.	.	16g\LL	qui	8dd\	-ctus	.	.	.	.	8BB-/J	.	.	.
.	.	.	.	.	16f/JJ	.	.	.	.	16f\JJ	.	.	.	.	.	.	.	.	.	.	.
*	*	*	*Xtremolo	*	*	*	*	*	*	*	*	*	*	*	*	*	*	*	*	*	*
!	!	!	!	!	!	!	!LO:LB:g=original	!	!	!LO:LB:g=original	!	!	!	!	!	!	!	!	!	!	!
=58	=58	=58	=58	=58	=58	=58	=58	=58	=58	=58	=58	=58	=58	=58	=58	=58	=58	=58	=58	=58	=58
*	*	*	*	*	*tremolo	*	*	*	*	*	*	*	*	*	*	*	*	*	*	*	*
8F\L	.	.	16e-/LL	.	16an/LL	.	4.An\	Be-	2ryy	4.f\	ve-	4.ff\	Be-	.	2r	.	.	8F\L	.	.	.
.	.	.	16f/	.	16a/	.	.	.	.	.	.	.	.	.	.	.	.	.	.	.	.
8F\	.	.	16c/	.	16a/	.	.	.	.	.	.	.	.	.	.	.	.	8F\	.	.	.
.	.	.	16c/JJ	.	16a/	.	.	.	.	.	.	.	.	.	.	.	.	.	.	.	.
8F\	.	.	16e-/LL	.	16a/	.	.	.	.	.	.	.	.	.	.	.	.	8F\	.	.	.
.	.	.	16f/	.	16a/	.	.	.	.	.	.	.	.	.	.	.	.	.	.	.	.
8F\J	.	.	16c/	.	16a/	.	8A\	-ne-	.	8e-\	-nit	8ff\	-ne-	.	.	.	.	8F\J	.	.	.
.	.	.	16c/JJ	.	16a/JJ	.	.	.	.	.	.	.	.	.	.	.	.	.	.	.	.
*	*	*	*	*	*Xtremolo	*	*	*	*	*	*	*	*	*	*	*	*	*	*	*	*
!	!	!	!LO:LB:g=original	!	!LO:LB:g=original	!	!	!	!	!	!	!LO:LB:g=original	!	!	!	!	!	!	!	!	!
=59	=59	=59	=59	=59	=59	=59	=59	=59	=59	=59	=59	=59	=59	=59	=59	=59	=59	=59	=59	=59	=59
*	*	*	*tremolo	*	*	*	*	*	*	*	*	*	*	*	*	*	*	*	*	*	*
!	!	!	!	!	!LO:TX:t=P:problem=mixed beam	!	!	!	!	!	!	!	!	!	!	!	!	!	!	!	!
8BB-/L	.	.	8d/L	.	16b-\LL	.	8B-\	-di-	2ryy	8d\	ve-	16ff\LL	-di-	8r	2r	8r	8r	8BB-/L	.	8r	8r
.	.	.	.	.	16dd\	.	.	.	.	.	.	16dd\JJ	.	.	.	.	.	.	.	.	.
8BB-/	.	.	8d/	.	16f/	.	8BB-/	-ctus	.	8d\	-nit	8b-\	-ctus	8B-/L	.	8B-/L	8f\L	8BB-/	.	8b-\L	8ff\L
.	.	.	.	.	16f/JJ	.	.	.	.	.	.	.	.	.	.	.	.	.	.	.	.
!	!	!	!	!	!LO:TX:t=P:problem=mixed beam	!	!	!	!	!	!	!	!	!	!	!	!	!	!	!	!
8BB-/	.	.	8d/	.	16b-\LL	.	4r	.	.	8r	.	8r	.	8B-/	.	8B-/	8f\	8BB-/	.	8b-\	8ff\
.	.	.	.	.	16dd\	.	.	.	.	.	.	.	.	.	.	.	.	.	.	.	.
8BB-/J	.	.	8d/J	.	16f/	.	.	.	.	8d\	qui	8b-\	qui	8B-/J	.	8B-/J	8f\J	8BB-/J	.	8b-\J	8ff\J
.	.	.	.	.	16f/JJ	.	.	.	.	.	.	.	.	.	.	.	.	.	.	.	.
*Xtremolo	*	*	*Xtremolo	*	*	*	*	*	*	*	*	*	*	*	*	*	*	*Xtremolo	*	*	*
!	!	!	!	!	!	!	!	!	!	!	!	!	!	!	!	!	!LO:LB:g=original	!	!	!	!
=60	=60	=60	=60	=60	=60	=60	=60	=60	=60	=60	=60	=60	=60	=60	=60	=60	=60	=60	=60	=60	=60
!LO:TX:t=P:problem=mixed beam	!	!	!	!	!	!	!	!	!	!	!	!	!	!LO:TX:a:t=2	!	!LO:TX:a:t=2	!LO:TX:a:t=2	!LO:TX:t=P:problem=mixed beam	!	!	!
8BB-/L	.	.	16f/LL	.	16a-X/LL	.	4r	.	2ryy	4f\	ve-	4a-X\	ve-	1r	2r	1r	1r	8BB-/L	.	8ff\L	8aa-\L
.	.	.	16B-/	.	16B-/	.	.	.	.	.	.	.	.	.	.	.	.	.	.	.	.
8B-\	.	.	16f/	.	16a-/	.	.	.	.	.	.	.	.	.	.	.	.	8B-\	.	8ff\	8aa-\
.	.	.	16f/JJ	.	16a-/JJ	.	.	.	.	.	.	.	.	.	.	.	.	.	.	.	.
8B-\	.	.	16e-/LL	.	16g/LL	.	8r	.	.	8e-\	-nit	8g\	-nit	.	.	.	.	8B-\	.	8ee-\	8gg\
.	.	.	16B-/	.	16B-/	.	.	.	.	.	.	.	.	.	.	.	.	.	.	.	.
8B-\J	.	.	16e-/	.	16g/	.	8BB-/	in	.	8e-\	in	8g\	in	.	.	.	.	8B-\J	.	8ee-\J	8gg\J
.	.	.	16e-/JJ	.	16g/JJ	.	.	.	.	.	.	.	.	.	.	.	.	.	.	.	.
!	!	!	!	!	!	!	!	!	!	!	!	!	!	!	!	!	!	!	!	!	!LO:LB:g=original
=61	=61	=61	=61	=61	=61	=61	=61	=61	=61	=61	=61	=61	=61	=61	=61	=61	=61	=61	=61	=61	=61
*	*	*	*	*	*	*	*	*	*	*	*	*	*	*	*	*	*	*rep	*	*	*
!LO:TX:t=P:problem=mixed beam	!	!	!	!	!	!	!	!	!	!	!	!	!	!	!	!	!	!LO:TX:t=P:problem=mixed beam	!	!	!
8BB-/L	.	.	16d/LL	.	16f/LL	.	4F\	no-	2ryy	4d\	no-	4f\	no-	.	2r	.	.	8BB-/L	.	8b-\L	8ff\L
.	.	.	16B-/	.	16B-/	.	.	.	.	.	.	.	.	.	.	.	.	.	.	.	.
8B-\	.	.	16d/	.	16f/	.	.	.	.	.	.	.	.	.	.	.	.	8B-\	.	8b-\	8ff\
.	.	.	16d/JJ	.	16f/JJ	.	.	.	.	.	.	.	.	.	.	.	.	.	.	.	.
8B-\	.	.	16e-/LL	.	16g/LL	.	8E-\	-mi-	.	8e-\	-mi-	8g\	-mi-	.	.	.	.	8B-\	.	8ee-\	8gg\
.	.	.	16B-/	.	16B-/	.	.	.	.	.	.	.	.	.	.	.	.	.	.	.	.
8B-\J	.	.	16e-/	.	16g/	.	8E-\	-ne	.	8e-\	-ne	8g\	-ne	.	.	.	.	8B-\J	.	8ee-\J	8gg\J
.	.	.	16e-/JJ	.	16g/JJ	.	.	.	.	.	.	.	.	.	.	.	.	.	.	.	.
*	*	*	*	*	*	*	*	*	*	*	*	*	*	*	*	*	*	*Xrep	*	*	*
=62	=62	=62	=62	=62	=62	=62	=62	=62	=62	=62	=62	=62	=62	=62	=62	=62	=62	=62	=62	=62	=62
!LO:TX:t=P:problem=zbędne pauzy w tr 1	!	!	!LO:TX:t=P:problem=zbędne pauzy w tr 1	!	!LO:TX:t=P:problem=zbędne pauzy w tr 1	!	!LO:TX:t=P:problem=zbędne pauzy w tr 1	!	!LO:TX:t=P:problem=zbędne pauzy w tr 1	!LO:TX:t=P:problem=zbędne pauzy w tr 1	!	!LO:TX:t=P:problem=zbędne pauzy w tr 1	!	!LO:TX:t=P:problem=zbędne pauzy w tr 1	!LO:TX:t=P:problem=zbędne pauzy	!LO:TX:t=P:problem=zbędne pauzy w tr 1	!LO:TX:t=P:problem=zbędne pauzy w tr 1	!LO:TX:t=P:problem=zbędne pauzy w tr 1	!	!LO:TX:t=P:problem=zbędne pauzy w tr 1	!LO:TX:t=P:problem=zbędne pauzy w tr 1
2ryy	.	.	2ryy	.	2ryy	.	2ryy	.	2ryy	2ryy	.	2ryy	.	2ryy	2r	2ryy	2ryy	2ryy	.	2ryy	2ryy
=63	=63	=63	=63	=63	=63	=63	=63	=63	=63	=63	=63	=63	=63	=63	=63	=63	=63	=63	=63	=63	=63
2ryy	.	.	2ryy	.	2ryy	.	2ryy	.	2ryy	2ryy	.	2ryy	.	2ryy	2r	2ryy	2ryy	2ryy	.	2ryy	2ryy
=64	=64	=64	=64	=64	=64	=64	=64	=64	=64	=64	=64	=64	=64	=64	=64	=64	=64	=64	=64	=64	=64
*	*	*	*	*	*	*	*	*	*	*	*	*	*	*	*	*	*	*rep	*	*	*
!LO:TX:t=P:problem=mixed beam	!	!	!	!	!	!	!	!	!	!	!	!	!	!	!	!	!	!LO:TX:t=P:problem=mixed beam	!	!	!
8BB-/L	.	.	16f/LL	.	16a-/LL	.	4D\	Do-	2ryy	4f\	Do-	4a-\	do-	4B-/	4b-/	4B-/	4f\	8BB-/L	.	8ff\L	8aa-\L
.	.	.	16B-/	.	16B-/	.	.	.	.	.	.	.	.	.	.	.	.	.	.	.	.
8B-\	.	.	16f/	.	16a-/	.	.	.	.	.	.	.	.	.	.	.	.	8B-\	.	8ff\	8aa-\
.	.	.	16f/JJ	.	16a-/JJ	.	.	.	.	.	.	.	.	.	.	.	.	.	.	.	.
8B-\	.	.	16e-/LL	.	16g/LL	.	4E-\	-mi-	.	4e-\	-mi-	4g\	-mi-	4e-/	4g/	4e-\	4g\	8B-\	.	8ee-\	8gg\
.	.	.	16B-/	.	16B-/	.	.	.	.	.	.	.	.	.	.	.	.	.	.	.	.
8B-\J	.	.	16e-/	.	16g/	.	.	.	.	.	.	.	.	.	.	.	.	8B-\J	.	8ee-\J	8gg\J
.	.	.	16e-/JJ	.	16g/JJ	.	.	.	.	.	.	.	.	.	.	.	.	.	.	.	.
*	*	*	*	*	*	*	*	*	*	*	*	*	*	*	*	*	*	*Xrep	*	*	*
!	!	!	!	!	!	!	!	!	!	!	!	!	!	!	!LO:LB:g=original	!	!	!	!	!	!
=65	=65	=65	=65	=65	=65	=65	=65	=65	=65	=65	=65	=65	=65	=65	=65	=65	=65	=65	=65	=65	=65
!LO:TX:t=P:problem=mixed beam	!	!	!	!	!	!	!	!	!	!	!	!	!	!	!	!	!	!LO:TX:t=P:problem=mixed beam	!	!	!
8B-\L	.	.	16d/LL	.	16f/LL	.	4BB-/	-ni	2ryy	4d\	-ne	4f/	-ni	8B-/L	8b-/L	8B-/L	8f\L	8B-\L	.	8b-\L	8ff\L
.	.	.	16d/	.	16b-/	.	.	.	.	.	.	.	.	.	.	.	.	.	.	.	.
8BB-/	.	.	16d/	.	16b-/	.	.	.	.	.	.	.	.	8B-/	8b-/	8B-/	8f\	8BB-/	.	8b-\	8ff\
.	.	.	16d/JJ	.	16b-/JJ	.	.	.	.	.	.	.	.	.	.	.	.	.	.	.	.
8BB-/J	.	.	8d/	.	8b-\	.	4r	.	.	4r	.	8r	.	8B-/J	8b-/J	8B-/J	8f\J	8BB-/J	.	8b-\J	8ff\J
!	!	!	!	!	!	!	!	!	!	!	!	!LO:TX:a:i:t=Solo	!	!	!	!	!	!	!	!	!
8r	.	.	8r	.	8r	.	.	.	.	.	.	8b-\	qui	8r	8r	8r	8r	8r	.	8r	8r
!	!	!	!	!	!	!	!	!	!	!	!	!	!	!	!	!	!	!LO:LB:g=original	!	!	!
=66	=66	=66	=66	=66	=66	=66	=66	=66	=66	=66	=66	=66	=66	=66	=66	=66	=66	=66	=66	=66	=66
!	!	!	!	!	!	!	!LO:TX:a:t=14.	!	!	!LO:TX:a:t=12.	!	!	!	!LO:TX:a:t=2	!	!LO:TX:a:t=2.	!LO:TX:a:t=2	!	!	!LO:TX:a:t=2	!LO:TX:a:t=2
8E-\	.	.	8r	.	8r	.	0r	.	2ryy	0r	.	8.b-\L	ve-	1r	1r	1r	1r	8E-\	.	1r	1r
8r	.	.	8g/L	.	8b-\L	.	.	.	.	.	.	.	.	.	.	.	.	8r	.	.	.
.	.	.	.	.	.	.	.	.	.	.	.	16ee-\Jk	.	.	.	.	.	.	.	.	.
4r	.	.	8g/	.	8b-\	.	.	.	.	.	.	8ee-\	-nit	.	.	.	.	4r	.	.	.
.	.	.	8g/J	.	8b-\J	.	.	.	.	.	.	16r	.	.	.	.	.	.	.	.	.
.	.	.	.	.	.	.	.	.	.	.	.	16ee-\	qui	.	.	.	.	.	.	.	.
!	!	!	!	!	!LO:LB:g=original	!	!	!	!	!	!	!	!	!	!	!	!	!	!	!	!
=67	=67	=67	=67	=67	=67	=67	=67	=67	=67	=67	=67	=67	=67	=67	=67	=67	=67	=67	=67	=67	=67
8E-\	.	.	8r	.	8r	.	.	.	2ryy	.	.	8.ee-\L	ve-	.	.	.	.	8E-\	.	.	.
*	*	*	*tremolo	*	*	*	*	*	*	*	*	*	*	*	*	*	*	*	*	*	*
8r	.	.	8g/L	.	8b-\L	.	.	.	.	.	.	.	.	.	.	.	.	8r	.	.	.
.	.	.	.	.	.	.	.	.	.	.	.	16g\Jk	.	.	.	.	.	.	.	.	.
!	!	!	!	!	!	!	!	!	!	!	!	!LO:LB:g=original	!	!	!	!	!	!	!	!	!
4r	.	.	8g/	.	8b-\	.	.	.	.	.	.	8g\	-nit	.	.	.	.	4r	.	.	.
.	.	.	8g/J	.	8b-\J	.	.	.	.	.	.	16r	.	.	.	.	.	.	.	.	.
.	.	.	.	.	.	.	.	.	.	.	.	16b-\	in	.	.	.	.	.	.	.	.
*	*	*	*Xtremolo	*	*	*	*	*	*	*	*	*	*	*	*	*	*	*	*	*	*
!LO:LB:g=original	!	!	!LO:LB:g=original	!	!	!	!	!	!	!	!	!	!	!	!	!	!	!	!	!	!
=68	=68	=68	=68	=68	=68	=68	=68	=68	=68	=68	=68	=68	=68	=68	=68	=68	=68	=68	=68	=68	=68
8E-\	.	.	8r	.	8r	.	.	.	2ryy	.	.	16g\LL	no-	8r	8r	8e-\	8g\	8E-\	.	8ee-\	8gg\
.	.	.	.	.	.	.	.	.	.	.	.	16b-\JJ	.	.	.	.	.	.	.	.	.
8r	.	.	8e-/	.	8g/	.	.	.	.	.	.	16b-\	-mi-	8e-/	8g/	8r	8r	8r	.	8r	8r
.	.	.	.	.	.	.	.	.	.	.	.	16b-\	-ne	.	.	.	.	.	.	.	.
8B-\	.	.	8r	.	8r	.	.	.	.	.	.	8.f\	Do-	8r	8r	8B-/	8f\	8B-\	.	8b-\	8aa-\
!	!	!	!	!	!	!	!	!	!	!	!	!	!	!LO:N:vis=8	!	!	!	!	!	!	!
8r	.	.	8B-/	.	8f/	.	.	.	.	.	.	.	.	16B-/	8b-/	8r	8r	8r	.	8r	8r
!	!	!	!	!	!	!	!	!	!	!	!	!	!	!LO:N:vis=8	!	!	!	!	!	!	!
.	.	.	.	.	.	.	.	.	.	.	.	16b-\	.	16r	.	.	.	.	.	.	.
!	!	!	!	!	!	!	!	!	!	!	!	!	!	!	!	!	!	!	!	!LO:LB:g=original	!
=69	=69	=69	=69	=69	=69	=69	=69	=69	=69	=69	=69	=69	=69	=69	=69	=69	=69	=69	=69	=69	=69
8E-\	.	.	8r	.	8r	.	.	.	2ryy	.	.	4b-\	-mi-	8e-/	8g/	8G/	4e-\	8E-\	.	4g/	4ee-\
*	*	*	*tremolo	*	*	*	*	*	*	*	*	*	*	*	*	*	*	*	*	*	*
8r	.	.	8G/L	.	8e-/L	.	.	.	.	.	.	.	.	8r	8r	8r	.	8r	.	.	.
!	!	!	!	!	!	!	!	!	!	!	!	!	!	!LO:TX:b:i:t=VS.	!	!	!	!	!	!	!
4r	.	.	8G/	.	8e-/	.	.	.	.	.	.	8e-\	-ni	4r	4r	4r	4r	4r	.	4r	4r
.	.	.	8G/J	.	8e-/J	.	.	.	.	.	.	8r	.	.	.	.	.	.	.	.	.
!	!	!	!	!	!	!	!	!	!	!	!	!	!	!LO:PB:g=original	!	!	!	!	!	!	!
=70	=70	=70	=70	=70	=70	=70	=70	=70	=70	=70	=70	=70	=70	=70	=70	=70	=70	=70	=70	=70	=70
!	!	!	!	!	!	!	!	!	!	!	!	!	!	!	!	!	!	!	!	!LO:TX:t=P:problem=takty nr 70-73 zapisane repetycją	!LO:TX:t=P:problem=takty nr 70-73 zapisane repetycją
!	!	!	!	!	!	!	!	!	!	!	!	!LO:TX:a:t=4:color=grey	!	!LO:TX:a:t=2	!	!LO:TX:a:t=2.	!LO:TX:a:t=2	!	!	!LO:TX:a:t=2	!LO:TX:a:t=2
8E-\	.	.	8r	.	8r	.	0r	.	2ryy	0r	.	0r	.	1r	1r	1r	1r	8E-\	.	1ryy	1ryy
8r	.	.	8g/L	.	8b-\L	.	.	.	.	.	.	.	.	.	.	.	.	8r	.	.	.
4r	.	.	8g/	.	8b-\	.	.	.	.	.	.	.	.	.	.	.	.	4r	.	.	.
.	.	.	8g/J	.	8b-\J	.	.	.	.	.	.	.	.	.	.	.	.	.	.	.	.
=71	=71	=71	=71	=71	=71	=71	=71	=71	=71	=71	=71	=71	=71	=71	=71	=71	=71	=71	=71	=71	=71
8E-\	.	.	8r	.	8r	.	.	.	2ryy	.	.	.	.	.	.	.	.	8E-\	.	.	.
8r	.	.	8g/L	.	8b-\L	.	.	.	.	.	.	.	.	.	.	.	.	8r	.	.	.
4r	.	.	8g/	.	8b-\	.	.	.	.	.	.	.	.	.	.	.	.	4r	.	.	.
.	.	.	8g/J	.	8b-\J	.	.	.	.	.	.	.	.	.	.	.	.	.	.	.	.
*	*	*	*Xtremolo	*	*	*	*	*	*	*	*	*	*	*	*	*	*	*	*	*	*
!	!	!	!	!	!	!	!	!	!	!	!	!	!	!	!	!LO:LB:g=original	!	!	!	!	!
=72	=72	=72	=72	=72	=72	=72	=72	=72	=72	=72	=72	=72	=72	=72	=72	=72	=72	=72	=72	=72	=72
8E-\	.	.	8r	.	8r	.	.	.	2ryy	.	.	.	.	8r	8r	8e-\	8g\	8E-\	.	8ee-\yy	8gg\yy
8r	.	.	8e-/	.	8g/	.	.	.	.	.	.	.	.	8e-/	8g/	8r	8r	8r	.	8ryy	8ryy
8B-\	.	.	8r	.	8r	.	.	.	.	.	.	.	.	8r	8r	8B-/	8f\	8B-\	.	8b-\yy	8aa-\yy
!	!	!	!LO:TX:a:t=vi	!	!	!	!	!	!	!	!	!	!	!LO:N:vis=8	!	!	!	!	!	!	!
8r	.	.	8B-/	.	8f/	.	.	.	.	.	.	.	.	16B-/	8b-/	8r	8r	8r	.	8ryy	8ryy
!	!	!	!	!	!	!	!	!	!	!	!	!	!	!LO:N:vis=8	!	!	!	!	!	!	!
.	.	.	.	.	.	.	.	.	.	.	.	.	.	16r	.	.	.	.	.	.	.
=73	=73	=73	=73	=73	=73	=73	=73	=73	=73	=73	=73	=73	=73	=73	=73	=73	=73	=73	=73	=73	=73
*tremolo	*	*	*	*	*	*	*	*	*	*	*	*	*	*	*	*	*	*tremolo	*	*	*
!	!	!	!LO:TX:a:t=de.	!	!	!	!	!	!	!	!	!	!	!	!	!	!	!	!	!	!
8E-\L	.	.	16e-/LL	.	16e-/LL	.	.	.	2ryy	.	.	.	.	8e-/	8g/	8G/	8e-\	8E-\L	.	4g/yy	4ee-\yy
.	.	.	16B-/	.	16g/	.	.	.	.	.	.	.	.	.	.	.	.	.	.	.	.
8E-\	.	.	16e-/	.	16e-/	.	.	.	.	.	.	.	.	8r	8r	8r	8r	8E-\	.	.	.
.	.	.	16e-/JJ	.	16e-/JJ	.	.	.	.	.	.	.	.	.	.	.	.	.	.	.	.
8E-\	.	.	16e-/LL	.	16e-/LL	.	.	.	.	.	.	.	.	4r	4r	4r	4r	8E-\	.	4ryy	4ryy
.	.	.	16B-/	.	16g/	.	.	.	.	.	.	.	.	.	.	.	.	.	.	.	.
8E-\J	.	.	16e-/	.	16e-/	.	.	.	.	.	.	.	.	.	.	.	.	8E-\J	.	.	.
.	.	.	16e-/JJ	.	16e-/JJ	.	.	.	.	.	.	.	.	.	.	.	.	.	.	.	.
!	!	!	!	!	!LO:LB:g=original	!	!	!	!	!	!	!	!	!	!	!	!	!	!	!	!
=74	=74	=74	=74	=74	=74	=74	=74	=74	=74	=74	=74	=74	=74	=74	=74	=74	=74	=74	=74	=74	=74
*	*	*	*	*	*	*	*	*	*	*	*	*2\right	*	*	*	*	*	*	*	*	*
8BB-/L	.	.	16d/LL	.	16d/LL	.	0r	.	2ryy	0r	.	2dd\	O-	2B-/	2b-/	2B-/	2f\	8BB-/L	.	2b-\	2ff\
.	.	.	16B-/	.	16f/	.	.	.	.	.	.	.	.	.	.	.	.	.	.	.	.
8BB-/	.	.	16d/	.	16B-/	.	.	.	.	.	.	.	.	.	.	.	.	8BB-/	.	.	.
.	.	.	16d/JJ	.	16f/JJ	.	.	.	.	.	.	.	.	.	.	.	.	.	.	.	.
8BB-/	.	.	16d/LL	.	16f/LL	.	.	.	.	.	.	.	.	.	.	.	.	8BB-/	.	.	.
.	.	.	16B-/	.	16d/	.	.	.	.	.	.	.	.	.	.	.	.	.	.	.	.
8BB-/J	.	.	16d/	.	16B-/	.	.	.	.	.	.	.	.	.	.	.	.	8BB-/J	.	.	.
.	.	.	16d/JJ	.	16d/JJ	.	.	.	.	.	.	.	.	.	.	.	.	.	.	.	.
!	!	!	!	!	!	!	!	!	!	!	!	!	!	!	!	!	!LO:LB:g=original	!LO:LB:g=original	!	!	!
=75	=75	=75	=75	=75	=75	=75	=75	=75	=75	=75	=75	=75	=75	=75	=75	=75	=75	=75	=75	=75	=75
*	*	*	*	*	*	*	*	*	*	*	*	*	*	*	*	*2\right	*	*	*	*	*
8E-\L	.	.	16e-/LL	.	16e-/LL	.	.	.	2ryy	.	.	4ee-\	-san-	2e-/	2g/	2e-\	2g\	8E-\L	.	2ee-\	2gg\
.	.	.	16B-/	.	16g/	.	.	.	.	.	.	.	.	.	.	.	.	.	.	.	.
8E-\	.	.	16e-/	.	16e-/	.	.	.	.	.	.	.	.	.	.	.	.	8E-\	.	.	.
.	.	.	16e-/JJ	.	16e-/JJ	.	.	.	.	.	.	.	.	.	.	.	.	.	.	.	.
*	*	*	*rep	*	*	*	*	*	*	*	*	*	*	*	*	*	*	*	*	*	*
8E-\	.	.	16e-/LL	.	16e-/LL	.	.	.	.	.	.	16ee-\LL	.	.	.	.	.	8E-\	.	.	.
.	.	.	16B-/	.	16g/	.	.	.	.	.	.	16dd\JJ	.	.	.	.	.	.	.	.	.
8E-\J	.	.	16e-/	.	16e-/	.	.	.	.	.	.	16cc\LL	-na	.	.	.	.	8E-\J	.	.	.
.	.	.	16e-/JJ	.	16e-/JJ	.	.	.	.	.	.	16b-\JJ	.	.	.	.	.	.	.	.	.
*	*	*	*Xrep	*	*	*	*	*	*	*	*	*	*	*	*	*	*	*	*	*	*
!	!	!	!	!	!	!	!	!	!	!	!	!	!	!	!LO:LB:g=original	!	!	!	!	!	!
=76	=76	=76	=76	=76	=76	=76	=76	=76	=76	=76	=76	=76	=76	=76	=76	=76	=76	=76	=76	=76	=76
8BB-/L	.	.	16d/LL	.	16d/LL	.	.	.	2ryy	.	.	4.b-\	in	2B-/	2b-/	2B-/	2f\	8BB-/L	.	2b-\	2ff\
.	.	.	16B-/	.	16f/	.	.	.	.	.	.	.	.	.	.	.	.	.	.	.	.
8BB-/	.	.	16d/	.	16B-/	.	.	.	.	.	.	.	.	.	.	.	.	8BB-/	.	.	.
.	.	.	16d/JJ	.	16d/JJ	.	.	.	.	.	.	.	.	.	.	.	.	.	.	.	.
*	*	*	*rep	*	*	*	*	*	*	*	*	*	*	*	*	*	*	*	*	*	*
8BB-/	.	.	16d/LL	.	16f/LL	.	.	.	.	.	.	.	.	.	.	.	.	8BB-/	.	.	.
.	.	.	16B-/	.	16d/	.	.	.	.	.	.	.	.	.	.	.	.	.	.	.	.
8BB-/J	.	.	16d/	.	16B-/	.	.	.	.	.	.	8a-\	ex-	.	.	.	.	8BB-/J	.	.	.
.	.	.	16d/JJ	.	16d/JJ	.	.	.	.	.	.	.	.	.	.	.	.	.	.	.	.
*	*	*	*Xrep	*	*	*	*	*	*	*	*	*	*	*	*	*	*	*	*	*	*
!	!	!	!	!	!	!	!	!	!	!	!	!LO:LB:g=original	!	!	!	!	!	!	!	!	!
=77	=77	=77	=77	=77	=77	=77	=77	=77	=77	=77	=77	=77	=77	=77	=77	=77	=77	=77	=77	=77	=77
8E-\L	.	.	16e-/LL	.	16e-/LL	.	.	.	2ryy	.	.	8g\	-cel-	2e-/	2g/	2e-\	2g\	8E-\L	.	2ee-\	2gg\
.	.	.	16B-/	.	16g/	.	.	.	.	.	.	.	.	.	.	.	.	.	.	.	.
8E-\	.	.	16B-/	.	16e-/	.	.	.	.	.	.	8g\	-siſ	.	.	.	.	8E-\	.	.	.
.	.	.	16B-/JJ	.	16e-/JJ	.	.	.	.	.	.	.	.	.	.	.	.	.	.	.	.
*	*	*	*rep	*	*	*	*	*	*	*	*	*	*	*	*	*	*	*	*	*	*
8E-\	.	.	16e-/LL	.	16e-/LL	.	.	.	.	.	.	4r	.	.	.	.	.	8E-\	.	.	.
.	.	.	16B-/	.	16g/	.	.	.	.	.	.	.	.	.	.	.	.	.	.	.	.
8E-\J	.	.	16B-/	.	16e-/	.	.	.	.	.	.	.	.	.	.	.	.	8E-\J	.	.	.
.	.	.	16B-/JJ	.	16e-/JJ	.	.	.	.	.	.	.	.	.	.	.	.	.	.	.	.
*	*	*	*Xrep	*	*	*	*	*	*	*	*	*	*	*	*	*	*	*	*	*	*
!	!	!	!	!	!	!	!	!	!	!LO:LB:g=original	!	!	!	!	!	!	!	!	!	!	!LO:LB:g=original
=78	=78	=78	=78	=78	=78	=78	=78	=78	=78	=78	=78	=78	=78	=78	=78	=78	=78	=78	=78	=78	=78
*	*	*	*	*	*	*	*	*	*	*2\right	*	*	*	*	*	*	*	*	*	*	*
8BB-/L	.	.	16f/LL	.	16d/LL	.	1r	.	2ryy	2dd\	Ho-	2ff\	O-	2B-/	2b-/	2B-/	2f\	8BB-/L	.	2b-\	2ff\
.	.	.	16B-/	.	16f/	.	.	.	.	.	.	.	.	.	.	.	.	.	.	.	.
8BB-/	.	.	16B-/	.	16B-/	.	.	.	.	.	.	.	.	.	.	.	.	8BB-/	.	.	.
.	.	.	16B-/JJ	.	16d/JJ	.	.	.	.	.	.	.	.	.	.	.	.	.	.	.	.
*	*	*	*rep	*	*	*	*	*	*	*	*	*	*	*	*	*	*	*	*	*	*
8BB-/	.	.	16f/LL	.	16f/LL	.	.	.	.	.	.	.	.	.	.	.	.	8BB-/	.	.	.
.	.	.	16B-/	.	16d/	.	.	.	.	.	.	.	.	.	.	.	.	.	.	.	.
8BB-/J	.	.	16B-/	.	16B-/	.	.	.	.	.	.	.	.	.	.	.	.	8BB-/J	.	.	.
!	!	!	!LO:TX:a:t=re&colon;	!	!	!	!	!	!	!	!	!	!	!	!	!	!	!	!	!	!
.	.	.	16B-/JJ	.	16d/JJ	.	.	.	.	.	.	.	.	.	.	.	.	.	.	.	.
*	*	*	*Xrep	*	*	*	*	*	*	*	*	*	*	*	*	*	*	*	*	*	*
!LO:LB:g=original	!	!	!LO:LB:g=original	!	!	!	!	!	!	!	!	!	!	!	!	!	!	!	!	!	!
=79	=79	=79	=79	=79	=79	=79	=79	=79	=79	=79	=79	=79	=79	=79	=79	=79	=79	=79	=79	=79	=79
*	*	*	*tremolo	*	*	*	*	*	*	*	*	*	*	*	*	*	*	*	*	*	*
8E-\L	.	.	16G/LL	.	16e-/LL	.	.	.	2ryy	4ee-\	-san-	4.gg\	-san-	2e-/	2g/	2e-\	2g\	8E-\L	.	2ee-\	2gg\
.	.	.	16G/	.	16g/	.	.	.	.	.	.	.	.	.	.	.	.	.	.	.	.
8E-\	.	.	16G/	.	16e-/	.	.	.	.	.	.	.	.	.	.	.	.	8E-\	.	.	.
.	.	.	16G/JJ	.	16e-/JJ	.	.	.	.	.	.	.	.	.	.	.	.	.	.	.	.
!	!	!	!	!	!LO:LB:g=original	!	!	!	!	!	!	!	!	!	!	!	!	!	!	!	!
8E-\	.	.	16G/LL	.	16e-/LL	.	.	.	.	16ee-\LL	-na	.	.	.	.	.	.	8E-\	.	.	.
.	.	.	16G/	.	16g/	.	.	.	.	16dd\JJ	.	.	.	.	.	.	.	.	.	.	.
8E-\J	.	.	16G/	.	16e-/	.	.	.	.	16cc\LL	.	8gg\	-na	.	.	.	.	8E-\J	.	.	.
.	.	.	16G/JJ	.	16e-/JJ	.	.	.	.	16b-\JJ	.	.	.	.	.	.	.	.	.	.	.
=80	=80	=80	=80	=80	=80	=80	=80	=80	=80	=80	=80	=80	=80	=80	=80	=80	=80	=80	=80	=80	=80
8BB-/L	.	.	16An/LL	.	16d/LL	.	4.d\	in	2ryy	4.b-\	in	4.bb-\	In	2B-/	2b-/	2B-/	2f\	8BB-/L	.	2b-\	2ff\
.	.	.	16A/	.	16f/	.	.	.	.	.	.	.	.	.	.	.	.	.	.	.	.
8BB-/	.	.	16A/	.	16B-/	.	.	.	.	.	.	.	.	.	.	.	.	8BB-/	.	.	.
.	.	.	16A/	.	16d/JJ	.	.	.	.	.	.	.	.	.	.	.	.	.	.	.	.
8BB-/	.	.	16A/	.	16f/LL	.	.	.	.	.	.	.	.	.	.	.	.	8BB-/	.	.	.
.	.	.	16A/	.	16d/	.	.	.	.	.	.	.	.	.	.	.	.	.	.	.	.
8BB-/J	.	.	16A/	.	16B-/	.	8d\	ex-	.	8a-\	ex-	8bb-\	ex-	.	.	.	.	8BB-/J	.	.	.
.	.	.	16A/JJ	.	16d/JJ	.	.	.	.	.	.	.	.	.	.	.	.	.	.	.	.
*	*	*	*Xtremolo	*	*	*	*	*	*	*	*	*	*	*	*	*	*	*	*	*	*
=81	=81	=81	=81	=81	=81	=81	=81	=81	=81	=81	=81	=81	=81	=81	=81	=81	=81	=81	=81	=81	=81
8E-\L	.	.	16G/LL	.	16e-/LL	.	8e-\	-cel-	2ryy	8g\	-cel-	16bb-\LL	-cel-	4e-/	4g/	4G/	4e-\	8E-\L	.	4g/	4ee-\
.	.	.	16B-/	.	16g/	.	.	.	.	.	.	16aa-\JJ	.	.	.	.	.	.	.	.	.
8E-\	.	.	16G/	.	16e-/	.	8E-\	-sis	.	8g\	-sis	8gg\	-ſis	.	.	.	.	8E-\	.	.	.
.	.	.	16G/JJ	.	16e-/JJ	.	.	.	.	.	.	.	.	.	.	.	.	.	.	.	.
!	!	!	!	!	!	!	!LO:TX:t=P:problem=partia kończy się w t. nr 81	!	!	!	!	!	!	!	!	!	!	!	!	!	!
8E-\	.	.	16G/LL	.	16e-/LL	.	4r	.	.	4r	.	4r	.	8e-/L	8g/L	8G/L	8e-\L	8E-\	.	8g/L	8ee-\L
.	.	.	16B-/	.	16g/	.	.	.	.	.	.	.	.	.	.	.	.	.	.	.	.
8E-\J	.	.	16G/	.	16e-/	.	.	.	.	.	.	.	.	8e-/J	8g/J	8G/J	8e-\J	8E-\J	.	8g/J	8ee-\J
.	.	.	16G/JJ	.	16e-/JJ	.	.	.	.	.	.	.	.	.	.	.	.	.	.	.	.
*Xtremolo	*	*	*	*	*	*	*	*	*	*	*	*	*	*	*	*	*	*Xtremolo	*	*	*
=82	=82	=82	=82	=82	=82	=82	=82	=82	=82	=82	=82	=82	=82	=82	=82	=82	=82	=82	=82	=82	=82
!	!	!	!	!	!	!	!	!	!	!LO:TX:a:t=1.	!	!LO:TX:b:i:t=Agnus Verte	!	!	!	!	!	!	!	!	!
4E-\	.	.	4G/	.	4e-/	.	2ryy	.	2ryy	2r	.	2r	.	4e-/	4g/	4G/	4e-\	4E-\	.	4g/	4ee-\
4r	.	.	4r	.	4r	.	.	.	.	.	.	.	.	4r	4r	4r	4r	4r	.	4r	4r
==	==	==	==	==	==	==	==	==	==	==	==	==	==	==	==	==	==	==	==	==	==
*-	*-	*-	*-	*-	*-	*-	*-	*-	*-	*-	*-	*-	*-	*-	*-	*-	*-	*-	*-	*-	*-
!!!system-decoration: [(g1)][(g2)][(g3)][(g4)]<s14>
!!!RDF**kern: > = above
!!!RDF**kern: < = below
!!!RDF**kern: @ = marked note, color=grey
!!!ENC: Marcin Jachim
!!!END: 2020-11-09
!!!ENC: Andrzej Kubiczek
!!!END: 2022-04-05
